;FLAVOR:Marlin
;TIME:6517
;Filament used: 6.11228m
;Layer height: 0.2
;MINX:80.6
;MINY:70.699
;MINZ:0.2
;MAXX:154.4
;MAXY:164.301
;MAXZ:24
;Generated with Cura_SteamEngine 4.1.0
M140 S60
M105
M190 S60
M104 S210
M105
M109 S210
M82 ;absolute extrusion mode
; Ender 3 Custom Start G-code
G28 ; Home all axes
G92 E0 ; Reset Extruder
G1 Z2.0 F3000 ; Move Z Axis up little to prevent scratching of Heat Bed
G1 X0.1 Y20 Z0.3 F5000.0 ; Move to start position
G1 X0.1 Y200.0 Z0.3 F1500.0 E15 ; Draw the first line
G1 X0.4 Y200.0 Z0.3 F5000.0 ; Move to side a little
G1 X0.4 Y20 Z0.3 F1500.0 E30 ; Draw the second line
G92 E0 ; Reset Extruder
G1 Z2.0 F3000 ; Move Z Axis up little to prevent scratching of Heat Bed
; End of custom start GCode
G92 E0
G92 E0
G1 F2400 E-5
;LAYER_COUNT:120
;LAYER:0
M107
M204 S500
M205 X10 Y10
;MESH:LM2596_wDisplay.stl
G0 F3600 X81 Y163.901 Z0.2
;TYPE:WALL-INNER
G1 F2400 E0
G1 F1800 X81 Y130.901 E1.09758
G1 X154 Y130.901 E3.52557
G1 X154 Y163.901 E4.62316
G1 X81 Y163.901 E7.05115
G0 F3600 X81.07 Y163.831
G0 X130.83 Y161.571
G0 X130.9 Y161.501
G1 F1800 X147.1 Y161.501 E7.58996
G1 X147.1 Y133.301 E8.5279
G1 X130.9 Y133.301 E9.06671
G1 X130.9 Y161.501 E10.00465
G0 F3600 X131.3 Y161.101
;TYPE:WALL-OUTER
G1 F1800 X146.7 Y161.101 E10.51685
G1 X146.7 Y133.701 E11.42818
G1 X131.3 Y133.701 E11.94039
G1 X131.3 Y161.101 E12.85172
G0 F3600 X131.5 Y161.101
G0 X131.5 Y161.601
G0 X81.07 Y163.831
G0 X80.6 Y164.301
G1 F1800 X80.6 Y130.501 E13.97591
G1 X154.4 Y130.501 E16.43051
G1 X154.4 Y164.301 E17.5547
G1 X80.6 Y164.301 E20.0093
G0 F3600 X80.6 Y164.101
G0 X81.39 Y163.511
;TYPE:SKIN
G1 F1800 X81.39 Y131.291 E21.08094
G1 X153.61 Y131.291 E23.48299
G1 X153.61 Y163.511 E24.55463
G1 X81.39 Y163.511 E26.95667
G0 F3600 X130.51 Y161.891
G1 F1800 X147.49 Y161.891 E27.52143
G1 X147.49 Y132.911 E28.48531
G1 X130.51 Y132.911 E29.05007
G1 X130.51 Y161.891 E30.01395
G0 F3600 X147.128 Y161.529
G0 X153.429 Y131.933
G1 F1800 X152.966 Y131.47 E30.03572
G0 F3600 X152.401 Y131.47
G1 F1800 X153.429 Y132.499 E30.0841
G0 F3600 X153.429 Y133.064
G1 F1800 X151.835 Y131.47 E30.15908
G0 F3600 X151.269 Y131.47
G1 F1800 X153.429 Y133.63 E30.26068
G0 F3600 X153.429 Y134.196
G1 F1800 X150.704 Y131.47 E30.38888
G0 F3600 X150.138 Y131.47
G1 F1800 X153.429 Y134.761 E30.54368
G0 F3600 X153.429 Y135.327
G1 F1800 X149.572 Y131.47 E30.7251
G0 F3600 X149.007 Y131.47
G1 F1800 X153.429 Y135.893 E30.93312
G0 F3600 X153.429 Y136.458
G1 F1800 X148.441 Y131.47 E31.16774
G0 F3600 X147.875 Y131.47
G1 F1800 X153.429 Y137.024 E31.42898
G0 F3600 X153.429 Y137.59
G1 F1800 X147.31 Y131.47 E31.71682
G0 F3600 X146.744 Y131.47
G1 F1800 X153.429 Y138.155 E32.03127
G0 F3600 X153.429 Y138.721
G1 F1800 X147.669 Y132.961 E32.3022
G0 F3600 X147.438 Y132.73
G1 F1800 X146.178 Y131.47 E32.36147
G0 F3600 X145.613 Y131.47
G1 F1800 X146.872 Y132.73 E32.42071
G0 F3600 X146.306 Y132.73
G1 F1800 X145.047 Y131.47 E32.47995
G0 F3600 X144.481 Y131.47
G1 F1800 X145.741 Y132.73 E32.53922
G0 F3600 X145.175 Y132.73
G1 F1800 X143.916 Y131.47 E32.59846
G0 F3600 X143.35 Y131.47
G1 F1800 X144.609 Y132.73 E32.6577
G0 F3600 X144.044 Y132.73
G1 F1800 X142.784 Y131.47 E32.71697
G0 F3600 X142.218 Y131.47
G1 F1800 X143.478 Y132.73 E32.77624
G0 F3600 X142.912 Y132.73
G1 F1800 X141.653 Y131.47 E32.83548
G0 F3600 X141.087 Y131.47
G1 F1800 X142.346 Y132.73 E32.89472
G0 F3600 X141.781 Y132.73
G1 F1800 X140.521 Y131.47 E32.95399
G0 F3600 X139.956 Y131.47
G1 F1800 X141.215 Y132.73 E33.01323
G0 F3600 X140.649 Y132.73
G1 F1800 X139.39 Y131.47 E33.07248
G0 F3600 X138.824 Y131.47
G1 F1800 X140.084 Y132.73 E33.13174
G0 F3600 X139.518 Y132.73
G1 F1800 X138.259 Y131.47 E33.19099
G0 F3600 X137.693 Y131.47
G1 F1800 X138.952 Y132.73 E33.25023
G0 F3600 X138.387 Y132.73
G1 F1800 X137.127 Y131.47 E33.30949
G0 F3600 X136.562 Y131.47
G1 F1800 X137.821 Y132.73 E33.36874
G0 F3600 X137.255 Y132.73
G1 F1800 X135.996 Y131.47 E33.42798
G0 F3600 X135.43 Y131.47
G1 F1800 X136.69 Y132.73 E33.48725
G0 F3600 X136.124 Y132.73
G1 F1800 X134.865 Y131.47 E33.54649
G0 F3600 X134.299 Y131.47
G1 F1800 X135.558 Y132.73 E33.60573
G0 F3600 X134.993 Y132.73
G1 F1800 X133.733 Y131.47 E33.665
G0 F3600 X133.168 Y131.47
G1 F1800 X134.427 Y132.73 E33.72424
G0 F3600 X133.861 Y132.73
G1 F1800 X132.602 Y131.47 E33.78349
G0 F3600 X132.036 Y131.47
G1 F1800 X133.295 Y132.73 E33.84273
G0 F3600 X132.73 Y132.73
G1 F1800 X131.47 Y131.47 E33.902
G0 F3600 X130.905 Y131.47
G1 F1800 X132.164 Y132.73 E33.96124
G0 F3600 X131.598 Y132.73
G1 F1800 X130.339 Y131.47 E34.02048
G0 F3600 X129.773 Y131.47
G1 F1800 X131.033 Y132.73 E34.07975
G0 F3600 X130.467 Y132.73
G1 F1800 X129.208 Y131.47 E34.13899
G0 F3600 X128.642 Y131.47
G1 F1800 X130.33 Y133.158 E34.21839
G0 F3600 X130.33 Y133.724
G1 F1800 X128.076 Y131.47 E34.32441
G0 F3600 X127.511 Y131.47
G1 F1800 X130.33 Y134.29 E34.45703
G0 F3600 X130.33 Y134.855
G1 F1800 X126.945 Y131.47 E34.61625
G0 F3600 X126.379 Y131.47
G1 F1800 X130.33 Y135.421 E34.80209
G0 F3600 X130.33 Y135.987
G1 F1800 X125.814 Y131.47 E35.01454
G0 F3600 X125.248 Y131.47
G1 F1800 X130.33 Y136.552 E35.25358
G0 F3600 X130.33 Y137.118
G1 F1800 X124.682 Y131.47 E35.51924
G0 F3600 X124.117 Y131.47
G1 F1800 X130.33 Y137.684 E35.81151
G0 F3600 X130.33 Y138.249
G1 F1800 X123.551 Y131.47 E36.13037
G0 F3600 X122.985 Y131.47
G1 F1800 X130.33 Y138.815 E36.47586
G0 F3600 X130.33 Y139.381
G1 F1800 X122.419 Y131.47 E36.84797
G0 F3600 X121.854 Y131.47
G1 F1800 X130.33 Y139.947 E37.24667
G0 F3600 X130.33 Y140.512
G1 F1800 X121.288 Y131.47 E37.67198
G0 F3600 X120.722 Y131.47
G1 F1800 X130.33 Y141.078 E38.12391
G0 F3600 X130.33 Y141.644
G1 F1800 X120.157 Y131.47 E38.60244
G0 F3600 X119.591 Y131.47
G1 F1800 X130.33 Y142.209 E39.10757
G0 F3600 X130.33 Y142.775
G1 F1800 X119.025 Y131.47 E39.63933
G0 F3600 X118.46 Y131.47
G1 F1800 X130.33 Y143.341 E40.19768
G0 F3600 X130.33 Y143.906
G1 F1800 X117.894 Y131.47 E40.78263
G0 F3600 X117.328 Y131.47
G1 F1800 X130.33 Y144.472 E41.3942
G0 F3600 X130.33 Y145.038
G1 F1800 X116.763 Y131.47 E42.03238
G0 F3600 X116.197 Y131.47
G1 F1800 X130.33 Y145.603 E42.69715
G0 F3600 X130.33 Y146.169
G1 F1800 X115.631 Y131.47 E43.38855
G0 F3600 X115.066 Y131.47
G1 F1800 X130.33 Y146.735 E44.10654
G0 F3600 X130.33 Y147.3
G1 F1800 X114.5 Y131.47 E44.85114
G0 F3600 X113.934 Y131.47
G1 F1800 X130.33 Y147.866 E45.62235
G0 F3600 X130.33 Y148.432
G1 F1800 X113.369 Y131.47 E46.42017
G0 F3600 X112.803 Y131.47
G1 F1800 X130.33 Y148.998 E47.24461
G0 F3600 X130.33 Y149.563
G1 F1800 X112.237 Y131.47 E48.09565
G0 F3600 X111.671 Y131.47
G1 F1800 X130.33 Y150.129 E48.97331
G0 F3600 X130.33 Y150.695
G1 F1800 X111.106 Y131.47 E49.87757
G0 F3600 X110.54 Y131.47
G1 F1800 X130.33 Y151.26 E50.80843
G0 F3600 X130.33 Y151.826
G1 F1800 X109.974 Y131.47 E51.76592
G0 F3600 X109.409 Y131.47
G1 F1800 X130.33 Y152.392 E52.75
G0 F3600 X130.33 Y152.957
G1 F1800 X108.843 Y131.47 E53.76068
G0 F3600 X108.277 Y131.47
G1 F1800 X130.33 Y153.523 E54.79799
G0 F3600 X130.33 Y154.089
G1 F1800 X107.712 Y131.47 E55.86189
G0 F3600 X107.146 Y131.47
G1 F1800 X130.33 Y154.654 E56.9524
G0 F3600 X130.33 Y155.22
G1 F1800 X106.58 Y131.47 E58.06953
G0 F3600 X106.015 Y131.47
G1 F1800 X130.33 Y155.786 E59.21325
G0 F3600 X130.33 Y156.351
G1 F1800 X105.449 Y131.47 E60.38358
G0 F3600 X104.883 Y131.47
G1 F1800 X130.33 Y156.917 E61.58053
G0 F3600 X130.33 Y157.483
G1 F1800 X104.318 Y131.47 E62.80407
G0 F3600 X103.752 Y131.47
G1 F1800 X130.33 Y158.048 E64.05422
G0 F3600 X130.33 Y158.614
G1 F1800 X103.186 Y131.47 E65.33099
G0 F3600 X102.62 Y131.47
G1 F1800 X130.33 Y159.18 E66.63439
G0 F3600 X130.33 Y159.746
G1 F1800 X102.055 Y131.47 E67.96438
G0 F3600 X101.489 Y131.47
G1 F1800 X130.33 Y160.311 E69.32097
G0 F3600 X130.33 Y160.877
G1 F1800 X100.923 Y131.47 E70.70419
G0 F3600 X100.358 Y131.47
G1 F1800 X130.33 Y161.443 E72.114
G0 F3600 X130.33 Y162.008
G1 F1800 X99.792 Y131.47 E73.55041
G0 F3600 X99.226 Y131.47
G1 F1800 X131.086 Y163.33 E75.04901
G0 F3600 X131.651 Y163.33
G1 F1800 X130.391 Y162.07 E75.10828
G0 F3600 X130.957 Y162.07
G1 F1800 X132.217 Y163.33 E75.16754
G0 F3600 X132.783 Y163.33
G1 F1800 X131.523 Y162.07 E75.22681
G0 F3600 X132.088 Y162.07
G1 F1800 X133.349 Y163.33 E75.2861
G0 F3600 X133.914 Y163.33
G1 F1800 X132.654 Y162.07 E75.34537
G0 F3600 X133.22 Y162.07
G1 F1800 X134.48 Y163.33 E75.40463
G0 F3600 X135.046 Y163.33
G1 F1800 X133.786 Y162.07 E75.4639
G0 F3600 X134.351 Y162.07
G1 F1800 X135.611 Y163.33 E75.52317
G0 F3600 X136.177 Y163.33
G1 F1800 X134.917 Y162.07 E75.58243
G0 F3600 X135.483 Y162.07
G1 F1800 X136.743 Y163.33 E75.6417
G0 F3600 X137.308 Y163.33
G1 F1800 X136.048 Y162.07 E75.70097
G0 F3600 X136.614 Y162.07
G1 F1800 X137.874 Y163.33 E75.76023
G0 F3600 X138.44 Y163.33
G1 F1800 X137.18 Y162.07 E75.8195
G0 F3600 X137.745 Y162.07
G1 F1800 X139.005 Y163.33 E75.87877
G0 F3600 X139.571 Y163.33
G1 F1800 X138.311 Y162.07 E75.93803
G0 F3600 X138.877 Y162.07
G1 F1800 X140.137 Y163.33 E75.9973
G0 F3600 X140.702 Y163.33
G1 F1800 X139.442 Y162.07 E76.05657
G0 F3600 X140.008 Y162.07
G1 F1800 X141.268 Y163.33 E76.11583
G0 F3600 X141.834 Y163.33
G1 F1800 X140.574 Y162.07 E76.1751
G0 F3600 X141.139 Y162.07
G1 F1800 X142.399 Y163.33 E76.23437
G0 F3600 X142.965 Y163.33
G1 F1800 X141.705 Y162.07 E76.29363
G0 F3600 X142.271 Y162.07
G1 F1800 X143.531 Y163.33 E76.3529
G0 F3600 X144.097 Y163.33
G1 F1800 X142.836 Y162.07 E76.41219
G0 F3600 X143.402 Y162.07
G1 F1800 X144.662 Y163.33 E76.47146
G0 F3600 X145.228 Y163.33
G1 F1800 X143.968 Y162.07 E76.53072
G0 F3600 X144.534 Y162.07
G1 F1800 X145.794 Y163.33 E76.58999
G0 F3600 X146.359 Y163.33
G1 F1800 X145.099 Y162.07 E76.64926
G0 F3600 X145.665 Y162.07
G1 F1800 X146.925 Y163.33 E76.70852
G0 F3600 X147.491 Y163.33
G1 F1800 X146.231 Y162.07 E76.76779
G0 F3600 X146.796 Y162.07
G1 F1800 X148.056 Y163.33 E76.82705
G0 F3600 X148.622 Y163.33
G1 F1800 X147.362 Y162.07 E76.88632
G0 F3600 X147.669 Y161.811
G1 F1800 X149.188 Y163.33 E76.95777
G0 F3600 X149.753 Y163.33
G1 F1800 X147.669 Y161.245 E77.05582
G0 F3600 X147.669 Y160.68
G1 F1800 X150.319 Y163.33 E77.18047
G0 F3600 X150.885 Y163.33
G1 F1800 X147.669 Y160.114 E77.33174
G0 F3600 X147.669 Y159.548
G1 F1800 X151.45 Y163.33 E77.50961
G0 F3600 X152.016 Y163.33
G1 F1800 X147.669 Y158.983 E77.71408
G0 F3600 X147.669 Y158.417
G1 F1800 X152.582 Y163.33 E77.94517
G0 F3600 X153.148 Y163.33
G1 F1800 X147.669 Y157.851 E78.20289
G0 F3600 X147.669 Y157.286
G1 F1800 X153.429 Y163.046 E78.47382
G0 F3600 X153.429 Y162.48
G1 F1800 X147.669 Y156.72 E78.74475
G0 F3600 X147.669 Y156.154
G1 F1800 X153.429 Y161.914 E79.01568
G0 F3600 X153.429 Y161.349
G1 F1800 X147.669 Y155.588 E79.28664
G0 F3600 X147.669 Y155.023
G1 F1800 X153.429 Y160.783 E79.55757
G0 F3600 X153.429 Y160.217
G1 F1800 X147.669 Y154.457 E79.82851
G0 F3600 X147.669 Y153.891
G1 F1800 X153.429 Y159.651 E80.09944
G0 F3600 X153.429 Y159.086
G1 F1800 X147.669 Y153.326 E80.37037
G0 F3600 X147.669 Y152.76
G1 F1800 X153.429 Y158.52 E80.6413
G0 F3600 X153.429 Y157.954
G1 F1800 X147.669 Y152.194 E80.91224
G0 F3600 X147.669 Y151.629
G1 F1800 X153.429 Y157.389 E81.18317
G0 F3600 X153.429 Y156.823
G1 F1800 X147.669 Y151.063 E81.4541
G0 F3600 X147.669 Y150.497
G1 F1800 X153.429 Y156.257 E81.72503
G0 F3600 X153.429 Y155.692
G1 F1800 X147.669 Y149.932 E81.99597
G0 F3600 X147.669 Y149.366
G1 F1800 X153.429 Y155.126 E82.2669
G0 F3600 X153.429 Y154.56
G1 F1800 X147.669 Y148.8 E82.53783
G0 F3600 X147.669 Y148.235
G1 F1800 X153.429 Y153.995 E82.80877
G0 F3600 X153.429 Y153.429
G1 F1800 X147.669 Y147.669 E83.0797
G0 F3600 X147.669 Y147.103
G1 F1800 X153.429 Y152.863 E83.35063
G0 F3600 X153.429 Y152.298
G1 F1800 X147.669 Y146.537 E83.62159
G0 F3600 X147.669 Y145.972
G1 F1800 X153.429 Y151.732 E83.89252
G0 F3600 X153.429 Y151.166
G1 F1800 X147.669 Y145.406 E84.16345
G0 F3600 X147.669 Y144.84
G1 F1800 X153.429 Y150.601 E84.43441
G0 F3600 X153.429 Y150.035
G1 F1800 X147.669 Y144.275 E84.70534
G0 F3600 X147.669 Y143.709
G1 F1800 X153.429 Y149.469 E84.97627
G0 F3600 X153.429 Y148.903
G1 F1800 X147.669 Y143.143 E85.24721
G0 F3600 X147.669 Y142.578
G1 F1800 X153.429 Y148.338 E85.51814
G0 F3600 X153.429 Y147.772
G1 F1800 X147.669 Y142.012 E85.78907
G0 F3600 X147.669 Y141.446
G1 F1800 X153.429 Y147.206 E86.06001
G0 F3600 X153.429 Y146.641
G1 F1800 X147.669 Y140.881 E86.33094
G0 F3600 X147.669 Y140.315
G1 F1800 X153.429 Y146.075 E86.60187
G0 F3600 X153.429 Y145.509
G1 F1800 X147.669 Y139.749 E86.8728
G0 F3600 X147.669 Y139.184
G1 F1800 X153.429 Y144.944 E87.14374
G0 F3600 X153.429 Y144.378
G1 F1800 X147.669 Y138.618 E87.41467
G0 F3600 X147.669 Y138.052
G1 F1800 X153.429 Y143.812 E87.6856
G0 F3600 X153.429 Y143.247
G1 F1800 X147.669 Y137.487 E87.95653
G0 F3600 X147.669 Y136.921
G1 F1800 X153.429 Y142.681 E88.22747
G0 F3600 X153.429 Y142.115
G1 F1800 X147.669 Y136.355 E88.4984
G0 F3600 X147.669 Y135.789
G1 F1800 X153.429 Y141.55 E88.76936
G0 F3600 X153.429 Y140.984
G1 F1800 X147.669 Y135.224 E89.04029
G0 F3600 X147.669 Y134.658
G1 F1800 X153.429 Y140.418 E89.31122
G0 F3600 X153.429 Y139.852
G1 F1800 X147.669 Y134.092 E89.58215
G0 F3600 X147.669 Y133.527
G1 F1800 X153.429 Y139.287 E89.85309
G1 X153.499 Y139.357
G0 F3600 X147.128 Y161.529
G0 X130.52 Y163.33
G1 F1800 X98.661 Y131.47 E91.35166
G0 F3600 X98.095 Y131.47
G1 F1800 X129.954 Y163.33 E92.85023
G0 F3600 X129.389 Y163.33
G1 F1800 X97.529 Y131.47 E94.34883
G0 F3600 X96.964 Y131.47
G1 F1800 X128.823 Y163.33 E95.8474
G0 F3600 X128.257 Y163.33
G1 F1800 X96.398 Y131.47 E97.34598
G0 F3600 X95.832 Y131.47
G1 F1800 X127.692 Y163.33 E98.84457
G0 F3600 X127.126 Y163.33
G1 F1800 X95.267 Y131.47 E100.34315
G0 F3600 X94.701 Y131.47
G1 F1800 X126.56 Y163.33 E101.84172
G0 F3600 X125.995 Y163.33
G1 F1800 X94.135 Y131.47 E103.34032
G0 F3600 X93.57 Y131.47
G1 F1800 X125.429 Y163.33 E104.83889
G0 F3600 X124.863 Y163.33
G1 F1800 X93.004 Y131.47 E106.33746
G0 F3600 X92.438 Y131.47
G1 F1800 X124.298 Y163.33 E107.83606
G0 F3600 X123.732 Y163.33
G1 F1800 X91.872 Y131.47 E109.33466
G0 F3600 X91.307 Y131.47
G1 F1800 X123.166 Y163.33 E110.83323
G0 F3600 X122.601 Y163.33
G1 F1800 X90.741 Y131.47 E112.33183
G0 F3600 X90.175 Y131.47
G1 F1800 X122.035 Y163.33 E113.83042
G0 F3600 X121.469 Y163.33
G1 F1800 X89.61 Y131.47 E115.329
G0 F3600 X89.044 Y131.47
G1 F1800 X120.903 Y163.33 E116.82757
G0 F3600 X120.338 Y163.33
G1 F1800 X88.478 Y131.47 E118.32617
G0 F3600 X87.913 Y131.47
G1 F1800 X119.772 Y163.33 E119.82474
G0 F3600 X119.206 Y163.33
G1 F1800 X87.347 Y131.47 E121.32331
G0 F3600 X86.781 Y131.47
G1 F1800 X118.641 Y163.33 E122.82191
G0 F3600 X118.075 Y163.33
G1 F1800 X86.216 Y131.47 E124.32048
G0 F3600 X85.65 Y131.47
G1 F1800 X117.509 Y163.33 E125.81906
G0 F3600 X116.944 Y163.33
G1 F1800 X85.084 Y131.47 E127.31765
G0 F3600 X84.519 Y131.47
G1 F1800 X116.378 Y163.33 E128.81623
G0 F3600 X115.812 Y163.33
G1 F1800 X83.953 Y131.47 E130.3148
G0 F3600 X83.387 Y131.47
G1 F1800 X115.247 Y163.33 E131.8134
G0 F3600 X114.681 Y163.33
G1 F1800 X82.822 Y131.47 E133.31197
G0 F3600 X82.256 Y131.47
G1 F1800 X114.115 Y163.33 E134.81054
G0 F3600 X113.55 Y163.33
G1 F1800 X81.69 Y131.47 E136.30914
G0 F3600 X81.569 Y131.915
G1 F1800 X112.984 Y163.33 E137.7868
G0 F3600 X112.418 Y163.33
G1 F1800 X81.569 Y132.481 E139.23785
G0 F3600 X81.569 Y133.047
G1 F1800 X111.852 Y163.33 E140.66227
G0 F3600 X111.287 Y163.33
G1 F1800 X81.569 Y133.612 E142.06011
G0 F3600 X81.569 Y134.178
G1 F1800 X110.721 Y163.33 E143.43133
G0 F3600 X110.155 Y163.33
G1 F1800 X81.569 Y134.744 E144.77593
G0 F3600 X81.569 Y135.309
G1 F1800 X109.59 Y163.33 E146.09395
G0 F3600 X109.024 Y163.33
G1 F1800 X81.569 Y135.875 E147.38535
G0 F3600 X81.569 Y136.441
G1 F1800 X108.458 Y163.33 E148.65012
G0 F3600 X107.893 Y163.33
G1 F1800 X81.569 Y137.006 E149.88833
G0 F3600 X81.569 Y137.572
G1 F1800 X107.327 Y163.33 E151.0999
G0 F3600 X106.761 Y163.33
G1 F1800 X81.569 Y138.138 E152.28486
G0 F3600 X81.569 Y138.703
G1 F1800 X106.196 Y163.33 E153.44324
G0 F3600 X105.63 Y163.33
G1 F1800 X81.569 Y139.269 E154.57499
G0 F3600 X81.569 Y139.835
G1 F1800 X105.064 Y163.33 E155.68012
G0 F3600 X104.499 Y163.33
G1 F1800 X81.569 Y140.401 E156.75866
