;FLAVOR:Marlin
;TIME:5441
;Filament used: 6.72673m
;Layer height: 0.3
;MINX:12.2
;MINY:92.242
;MINZ:0.2
;MAXX:207.8
;MAXY:134.707
;MAXZ:20
;Generated with Cura_SteamEngine 4.1.0
M140 S60
M105
M190 S60
M104 S200
M105
M109 S200
M82 ;absolute extrusion mode
; Ender 3 Custom Start G-code
G28 ; Home all axes
G92 E0 ; Reset Extruder
G1 Z2.0 F3000 ; Move Z Axis up little to prevent scratching of Heat Bed
G1 X0.1 Y20 Z0.3 F5000.0 ; Move to start position
G1 X0.1 Y200.0 Z0.3 F1500.0 E15 ; Draw the first line
G1 X0.4 Y200.0 Z0.3 F5000.0 ; Move to side a little
G1 X0.4 Y20 Z0.3 F1500.0 E30 ; Draw the second line
G92 E0 ; Reset Extruder
G1 Z2.0 F3000 ; Move Z Axis up little to prevent scratching of Heat Bed
; End of custom start GCode
G92 E0
G92 E0
G1 F2400 E-5
;LAYER_COUNT:67
;LAYER:0
M107
M204 S500
M205 X10 Y10
;MESH:ManetaNevera.stl
G0 F3600 X23.4 Y98.307 Z0.2
;TYPE:WALL-INNER
G1 F2400 E0
G1 F1800 X23.4 Y128.798 E1.01413
G1 X23.499 Y129.507 E1.03794
G1 X196.6 Y129.507 E6.79531
G1 X196.6 Y99.016 E7.80944
G1 X196.501 Y98.307 E7.83325
G1 X178.6 Y98.307 E8.42864
G1 X178.6 Y93.507 E8.58829
G1 X207.4 Y93.507 E9.54618
G1 X207.4 Y134.307 E10.9032
G1 X12.6 Y134.307 E17.38227
G1 X12.6 Y93.507 E18.73928
G1 X41.4 Y93.507 E19.69718
G1 X41.4 Y98.307 E19.85682
G1 X23.4 Y98.307 E20.45551
G0 F3600 X23.8 Y98.707
;TYPE:WALL-OUTER
G1 F1800 X23.8 Y128.77 E21.45541
G1 X23.847 Y129.107 E21.46672
G1 X196.2 Y129.107 E27.19921
G1 X196.2 Y99.044 E28.19911
G1 X196.153 Y98.707 E28.21042
G1 X178.2 Y98.707 E28.80754
G1 X178.2 Y93.107 E28.9938
G1 X207.8 Y93.107 E29.9783
G1 X207.8 Y134.707 E31.36192
G1 X12.2 Y134.707 E37.8676
G1 X12.2 Y93.107 E39.25123
G1 X41.8 Y93.107 E40.23573
G1 X41.8 Y98.707 E40.42198
G1 X23.8 Y98.707 E41.02067
G0 F3600 X23.8 Y98.907
G0 X23.3 Y98.907
G0 X23.01 Y97.917
;TYPE:SKIN
G1 F1800 X23.01 Y128.825 E42.04867
G1 X23.16 Y129.897 E42.08467
G1 X196.99 Y129.897 E47.86628
G1 X196.99 Y98.989 E48.89429
G1 X196.84 Y97.917 E48.93029
G1 X178.99 Y97.917 E49.52398
G1 X178.99 Y93.897 E49.65769
G1 X207.01 Y93.897 E50.58964
G1 X207.01 Y133.917 E51.92071
G1 X12.99 Y133.917 E58.37384
G1 X12.99 Y93.897 E59.70491
G1 X41.01 Y93.897 E60.63686
G1 X41.01 Y97.917 E60.77056
G1 X23.01 Y97.917 E61.36925
G0 F3600 X13.244 Y133.735
G1 F1800 X13.169 Y133.66 E61.37277
G0 F3600 X13.169 Y133.095
G1 F1800 X13.81 Y133.735 E61.4029
G0 F3600 X14.376 Y133.735
G1 F1800 X13.169 Y132.529 E61.45965
G0 F3600 X13.169 Y131.963
G1 F1800 X14.941 Y133.735 E61.543
G0 F3600 X15.507 Y133.735
G1 F1800 X13.169 Y131.398 E61.65295
G0 F3600 X13.169 Y130.832
G1 F1800 X16.073 Y133.735 E61.78952
G0 F3600 X16.638 Y133.735
G1 F1800 X13.169 Y130.266 E61.95269
G0 F3600 X13.169 Y129.701
G1 F1800 X17.204 Y133.735 E62.14246
G0 F3600 X17.77 Y133.735
G1 F1800 X13.169 Y129.135 E62.35886
G0 F3600 X13.169 Y128.569
G1 F1800 X18.335 Y133.735 E62.60185
G0 F3600 X18.901 Y133.735
G1 F1800 X13.169 Y128.004 E62.87144
G0 F3600 X13.169 Y127.438
G1 F1800 X19.467 Y133.735 E63.16766
G0 F3600 X20.033 Y133.735
G1 F1800 X13.169 Y126.872 E63.49049
G0 F3600 X13.169 Y126.306
G1 F1800 X20.598 Y133.735 E63.83993
G0 F3600 X21.164 Y133.735
G1 F1800 X13.169 Y125.741 E64.21597
G0 F3600 X13.169 Y125.175
G1 F1800 X21.73 Y133.735 E64.61863
G0 F3600 X22.295 Y133.735
G1 F1800 X13.169 Y124.609 E65.04789
G0 F3600 X13.169 Y124.044
G1 F1800 X22.861 Y133.735 E65.50374
G0 F3600 X23.427 Y133.735
G1 F1800 X13.169 Y123.478 E65.98623
G0 F3600 X13.169 Y122.912
G1 F1800 X23.992 Y133.735 E66.49531
G0 F3600 X24.558 Y133.735
G1 F1800 X13.169 Y122.347 E67.03099
G0 F3600 X13.169 Y121.781
G1 F1800 X25.124 Y133.735 E67.59329
G0 F3600 X25.689 Y133.735
G1 F1800 X13.169 Y121.215 E68.18219
G0 F3600 X13.169 Y120.65
G1 F1800 X26.255 Y133.735 E68.79769
G0 F3600 X26.821 Y133.735
G1 F1800 X23.162 Y130.077 E68.96978
G0 F3600 X22.978 Y129.892
G1 F1800 X13.169 Y120.084 E69.43114
G0 F3600 X13.169 Y119.518
G1 F1800 X22.886 Y129.235 E69.8882
G0 F3600 X22.83 Y128.613
G1 F1800 X13.169 Y118.953 E70.3426
G0 F3600 X13.169 Y118.387
G1 F1800 X22.83 Y128.047 E70.797
G0 F3600 X22.83 Y127.482
G1 F1800 X13.169 Y117.821 E71.25142
G0 F3600 X13.169 Y117.255
G1 F1800 X22.83 Y126.916 E71.70585
G0 F3600 X22.83 Y126.35
G1 F1800 X13.169 Y116.69 E72.16025
G0 F3600 X13.169 Y116.124
G1 F1800 X22.83 Y125.785 E72.61467
G0 F3600 X22.83 Y125.219
G1 F1800 X13.169 Y115.558 E73.06909
G0 F3600 X13.169 Y114.993
G1 F1800 X22.83 Y124.653 E73.5235
G0 F3600 X22.83 Y124.088
G1 F1800 X13.169 Y114.427 E73.97792
G0 F3600 X13.169 Y113.861
G1 F1800 X22.83 Y123.522 E74.43234
G0 F3600 X22.83 Y122.956
G1 F1800 X13.169 Y113.296 E74.88674
G0 F3600 X13.169 Y112.73
G1 F1800 X22.83 Y122.39 E75.34114
G0 F3600 X22.83 Y121.825
G1 F1800 X13.169 Y112.164 E75.79557
G0 F3600 X13.169 Y111.599
G1 F1800 X22.83 Y121.259 E76.24997
G0 F3600 X22.83 Y120.693
G1 F1800 X13.169 Y111.033 E76.70437
G0 F3600 X13.169 Y110.467
G1 F1800 X22.83 Y120.128 E77.15879
G0 F3600 X22.83 Y119.562
G1 F1800 X13.169 Y109.902 E77.61319
G0 F3600 X13.169 Y109.336
G1 F1800 X22.83 Y118.996 E78.06759
G0 F3600 X22.83 Y118.431
G1 F1800 X13.169 Y108.77 E78.52202
G0 F3600 X13.169 Y108.205
G1 F1800 X22.83 Y117.865 E78.97642
G0 F3600 X22.83 Y117.299
G1 F1800 X13.169 Y107.639 E79.43082
G0 F3600 X13.169 Y107.073
G1 F1800 X22.83 Y116.734 E79.88524
G0 F3600 X22.83 Y116.168
G1 F1800 X13.169 Y106.507 E80.33966
G0 F3600 X13.169 Y105.942
G1 F1800 X22.83 Y115.602 E80.79406
G0 F3600 X22.83 Y115.037
G1 F1800 X13.169 Y105.376 E81.24849
G0 F3600 X13.169 Y104.81
G1 F1800 X22.83 Y114.471 E81.70291
G0 F3600 X22.83 Y113.905
G1 F1800 X13.169 Y104.245 E82.15731
G0 F3600 X13.169 Y103.679
G1 F1800 X22.83 Y113.34 E82.61174
G0 F3600 X22.83 Y112.774
G1 F1800 X13.169 Y103.113 E83.06616
G0 F3600 X13.169 Y102.548
G1 F1800 X22.83 Y112.208 E83.52056
G0 F3600 X22.83 Y111.642
G1 F1800 X13.169 Y101.982 E83.97496
G0 F3600 X13.169 Y101.416
G1 F1800 X22.83 Y111.077 E84.42938
G0 F3600 X22.83 Y110.511
G1 F1800 X13.169 Y100.851 E84.88378
G0 F3600 X13.169 Y100.285
G1 F1800 X22.83 Y109.945 E85.33819
G0 F3600 X22.83 Y109.38
G1 F1800 X13.169 Y99.719 E85.79261
G0 F3600 X13.169 Y99.154
G1 F1800 X22.83 Y108.814 E86.24701
G0 F3600 X22.83 Y108.248
G1 F1800 X13.169 Y98.588 E86.70141
G0 F3600 X13.169 Y98.022
G1 F1800 X22.83 Y107.683 E87.15583
G0 F3600 X22.83 Y107.117
G1 F1800 X13.169 Y97.456 E87.61026
G0 F3600 X13.169 Y96.891
G1 F1800 X22.83 Y106.551 E88.06466
G0 F3600 X22.83 Y105.986
G1 F1800 X13.169 Y96.325 E88.51908
G0 F3600 X13.169 Y95.759
G1 F1800 X22.83 Y105.42 E88.97351
G0 F3600 X22.83 Y104.854
G1 F1800 X13.169 Y95.194 E89.42791
G0 F3600 X13.169 Y94.628
G1 F1800 X22.83 Y104.289 E89.88233
G0 F3600 X22.83 Y103.723
G1 F1800 X13.183 Y94.076 E90.33609
G0 F3600 X13.748 Y94.076
G1 F1800 X22.83 Y103.157 E90.76326
G0 F3600 X22.83 Y102.592
G1 F1800 X14.314 Y94.076 E91.16383
G0 F3600 X14.88 Y94.076
G1 F1800 X22.83 Y102.026 E91.53777
G0 F3600 X22.83 Y101.46
G1 F1800 X15.446 Y94.076 E91.88509
G0 F3600 X16.011 Y94.076
G1 F1800 X22.83 Y100.894 E92.20581
G0 F3600 X22.83 Y100.329
G1 F1800 X16.577 Y94.076 E92.49993
G0 F3600 X17.143 Y94.076
G1 F1800 X22.83 Y99.763 E92.76743
G0 F3600 X22.83 Y99.197
G1 F1800 X17.708 Y94.076 E93.00833
G0 F3600 X18.274 Y94.076
G1 F1800 X22.83 Y98.632 E93.22263
G0 F3600 X22.83 Y98.066
G1 F1800 X18.84 Y94.076 E93.41031
G0 F3600 X19.405 Y94.076
G1 F1800 X23.065 Y97.736 E93.58247
G0 F3600 X23.631 Y97.736
G1 F1800 X19.971 Y94.076 E93.75462
G0 F3600 X20.537 Y94.076
G1 F1800 X24.197 Y97.736 E93.92678
G0 F3600 X24.762 Y97.736
G1 F1800 X21.102 Y94.076 E94.09893
G0 F3600 X21.668 Y94.076
G1 F1800 X25.328 Y97.736 E94.27109
G0 F3600 X25.894 Y97.736
G1 F1800 X22.234 Y94.076 E94.44324
G0 F3600 X22.799 Y94.076
G1 F1800 X26.459 Y97.736 E94.6154
G0 F3600 X27.025 Y97.736
G1 F1800 X23.365 Y94.076 E94.78755
G0 F3600 X23.931 Y94.076
G1 F1800 X27.591 Y97.736 E94.95971
G0 F3600 X28.156 Y97.736
G1 F1800 X24.497 Y94.076 E95.13184
G0 F3600 X25.062 Y94.076
G1 F1800 X28.722 Y97.736 E95.30399
G0 F3600 X29.288 Y97.736
G1 F1800 X25.628 Y94.076 E95.47615
G0 F3600 X26.194 Y94.076
G1 F1800 X29.854 Y97.736 E95.6483
G0 F3600 X30.419 Y97.736
G1 F1800 X26.759 Y94.076 E95.82046
G0 F3600 X27.325 Y94.076
G1 F1800 X30.985 Y97.736 E95.99262
G0 F3600 X31.551 Y97.736
G1 F1800 X27.891 Y94.076 E96.16477
G0 F3600 X28.456 Y94.076
G1 F1800 X32.116 Y97.736 E96.33693
G0 F3600 X32.682 Y97.736
G1 F1800 X29.022 Y94.076 E96.50908
G0 F3600 X29.588 Y94.076
G1 F1800 X33.248 Y97.736 E96.68124
G0 F3600 X33.813 Y97.736
G1 F1800 X30.153 Y94.076 E96.85339
G0 F3600 X30.719 Y94.076
G1 F1800 X34.379 Y97.736 E97.02555
G0 F3600 X34.945 Y97.736
G1 F1800 X31.285 Y94.076 E97.1977
G0 F3600 X31.85 Y94.076
G1 F1800 X35.51 Y97.736 E97.36986
G0 F3600 X36.076 Y97.736
G1 F1800 X32.416 Y94.076 E97.54201
G0 F3600 X32.982 Y94.076
G1 F1800 X36.642 Y97.736 E97.71417
G0 F3600 X37.207 Y97.736
G1 F1800 X33.547 Y94.076 E97.88632
G0 F3600 X34.113 Y94.076
G1 F1800 X37.773 Y97.736 E98.05848
G0 F3600 X38.339 Y97.736
G1 F1800 X34.679 Y94.076 E98.23063
G0 F3600 X35.245 Y94.076
G1 F1800 X38.905 Y97.736 E98.40279
G0 F3600 X39.47 Y97.736
G1 F1800 X35.81 Y94.076 E98.57494
G0 F3600 X36.376 Y94.076
G1 F1800 X40.036 Y97.736 E98.7471
G0 F3600 X40.602 Y97.736
G1 F1800 X36.942 Y94.076 E98.91925
G0 F3600 X37.507 Y94.076
G1 F1800 X40.829 Y97.398 E99.07551
G0 F3600 X40.829 Y96.832
G1 F1800 X38.073 Y94.076 E99.20514
G0 F3600 X38.639 Y94.076
G1 F1800 X40.829 Y96.266 E99.30815
G0 F3600 X40.829 Y95.701
G1 F1800 X39.204 Y94.076 E99.38459
G0 F3600 X39.77 Y94.076
G1 F1800 X40.829 Y95.135 E99.4344
G0 F3600 X40.829 Y94.569
G1 F1800 X40.336 Y94.076 E99.45759
G0 F3600 X23.372 Y98.279
G0 X23.361 Y128.8
G0 X40.133 Y130.077
G1 F1800 X43.791 Y133.735 E99.62965
G0 F3600 X43.226 Y133.735
G1 F1800 X39.567 Y130.077 E99.80174
G0 F3600 X39.001 Y130.077
G1 F1800 X42.66 Y133.735 E99.97382
G0 F3600 X42.094 Y133.735
G1 F1800 X38.436 Y130.077 E100.14588
G0 F3600 X37.87 Y130.077
G1 F1800 X41.529 Y133.735 E100.31797
G0 F3600 X40.963 Y133.735
G1 F1800 X37.304 Y130.077 E100.49005
G0 F3600 X36.739 Y130.077
G1 F1800 X40.397 Y133.735 E100.66211
G0 F3600 X39.832 Y133.735
G1 F1800 X36.173 Y130.077 E100.8342
G0 F3600 X35.607 Y130.077
G1 F1800 X39.266 Y133.735 E101.00628
G0 F3600 X38.7 Y133.735
G1 F1800 X35.042 Y130.077 E101.17834
G0 F3600 X34.476 Y130.077
G1 F1800 X38.134 Y133.735 E101.3504
G0 F3600 X37.569 Y133.735
G1 F1800 X33.91 Y130.077 E101.52249
G0 F3600 X33.345 Y130.077
G1 F1800 X37.003 Y133.735 E101.69455
G0 F3600 X36.437 Y133.735
G1 F1800 X32.779 Y130.077 E101.86661
G0 F3600 X32.213 Y130.077
G1 F1800 X35.872 Y133.735 E102.0387
G0 F3600 X35.306 Y133.735
G1 F1800 X31.647 Y130.077 E102.21078
G0 F3600 X31.082 Y130.077
G1 F1800 X34.74 Y133.735 E102.38284
G0 F3600 X34.175 Y133.735
G1 F1800 X30.516 Y130.077 E102.55493
G0 F3600 X29.95 Y130.077
G1 F1800 X33.609 Y133.735 E102.72701
G0 F3600 X33.043 Y133.735
G1 F1800 X29.385 Y130.077 E102.89907
G0 F3600 X28.819 Y130.077
G1 F1800 X32.478 Y133.735 E103.07116
G0 F3600 X31.912 Y133.735
G1 F1800 X28.253 Y130.077 E103.24324
G0 F3600 X27.688 Y130.077
G1 F1800 X31.346 Y133.735 E103.4153
G0 F3600 X30.781 Y133.735
G1 F1800 X27.122 Y130.077 E103.58739
G0 F3600 X26.556 Y130.077
G1 F1800 X30.215 Y133.735 E103.75947
G0 F3600 X29.649 Y133.735
G1 F1800 X25.991 Y130.077 E103.93153
G0 F3600 X25.425 Y130.077
G1 F1800 X29.084 Y133.735 E104.10362
G0 F3600 X28.518 Y133.735
G1 F1800 X24.859 Y130.077 E104.2757
G0 F3600 X24.294 Y130.077
G1 F1800 X27.952 Y133.735 E104.44776
G0 F3600 X27.386 Y133.735
G1 F1800 X23.728 Y130.077 E104.61982
G1 X23.658 Y130.007
G0 F3600 X40.698 Y130.077
G1 F1800 X44.357 Y133.735 E104.79191
G0 F3600 X44.923 Y133.735
G1 F1800 X41.264 Y130.077 E104.96399
G0 F3600 X41.83 Y130.077
G1 F1800 X45.488 Y133.735 E105.13605
G0 F3600 X46.054 Y133.735
G1 F1800 X42.396 Y130.077 E105.30812
G0 F3600 X42.961 Y130.077
G1 F1800 X46.62 Y133.735 E105.4802
G0 F3600 X47.185 Y133.735
G1 F1800 X43.527 Y130.077 E105.65226
G0 F3600 X44.093 Y130.077
G1 F1800 X47.751 Y133.735 E105.82432
G0 F3600 X48.317 Y133.735
G1 F1800 X44.658 Y130.077 E105.99641
G0 F3600 X45.224 Y130.077
G1 F1800 X48.882 Y133.735 E106.16847
G0 F3600 X49.448 Y133.735
G1 F1800 X45.79 Y130.077 E106.34053
G0 F3600 X46.355 Y130.077
G1 F1800 X50.014 Y133.735 E106.51261
G0 F3600 X50.58 Y133.735
G1 F1800 X46.921 Y130.077 E106.6847
G0 F3600 X47.487 Y130.077
G1 F1800 X51.145 Y133.735 E106.85676
G0 F3600 X51.711 Y133.735
G1 F1800 X48.052 Y130.077 E107.02884
G0 F3600 X48.618 Y130.077
G1 F1800 X52.277 Y133.735 E107.20093
G0 F3600 X52.842 Y133.735
G1 F1800 X49.184 Y130.077 E107.37299
G0 F3600 X49.749 Y130.077
G1 F1800 X53.408 Y133.735 E107.54507
G0 F3600 X53.974 Y133.735
G1 F1800 X50.315 Y130.077 E107.71716
G0 F3600 X50.881 Y130.077
G1 F1800 X54.539 Y133.735 E107.88922
G0 F3600 X55.105 Y133.735
G1 F1800 X51.446 Y130.077 E108.0613
G0 F3600 X52.012 Y130.077
G1 F1800 X55.671 Y133.735 E108.23339
G0 F3600 X56.236 Y133.735
G1 F1800 X52.578 Y130.077 E108.40545
G0 F3600 X53.144 Y130.077
G1 F1800 X56.802 Y133.735 E108.57751
G0 F3600 X57.368 Y133.735
G1 F1800 X53.709 Y130.077 E108.7496
G0 F3600 X54.275 Y130.077
G1 F1800 X57.933 Y133.735 E108.92166
G0 F3600 X58.499 Y133.735
G1 F1800 X54.841 Y130.077 E109.09372
G0 F3600 X55.406 Y130.077
G1 F1800 X59.065 Y133.735 E109.2658
G0 F3600 X59.631 Y133.735
G1 F1800 X55.972 Y130.077 E109.43789
G0 F3600 X56.538 Y130.077
G1 F1800 X60.196 Y133.735 E109.60995
G0 F3600 X60.762 Y133.735
G1 F1800 X57.103 Y130.077 E109.78203
G0 F3600 X57.669 Y130.077
G1 F1800 X61.328 Y133.735 E109.95412
G0 F3600 X61.893 Y133.735
G1 F1800 X58.235 Y130.077 E110.12618
G0 F3600 X58.8 Y130.077
G1 F1800 X62.459 Y133.735 E110.29826
G0 F3600 X63.025 Y133.735
G1 F1800 X59.366 Y130.077 E110.47035
G0 F3600 X59.932 Y130.077
G1 F1800 X63.59 Y133.735 E110.64241
G0 F3600 X64.156 Y133.735
G1 F1800 X60.497 Y130.077 E110.81449
G0 F3600 X61.063 Y130.077
G1 F1800 X64.722 Y133.735 E110.98658
G0 F3600 X65.287 Y133.735
G1 F1800 X61.629 Y130.077 E111.15864
G0 F3600 X62.194 Y130.077
G1 F1800 X65.853 Y133.735 E111.33072
G0 F3600 X66.419 Y133.735
G1 F1800 X62.76 Y130.077 E111.50281
G0 F3600 X63.326 Y130.077
G1 F1800 X66.984 Y133.735 E111.67487
G0 F3600 X67.55 Y133.735
G1 F1800 X63.892 Y130.077 E111.84693
G0 F3600 X64.457 Y130.077
G1 F1800 X68.116 Y133.735 E112.01902
G0 F3600 X68.681 Y133.735
G1 F1800 X65.023 Y130.077 E112.19108
G0 F3600 X65.589 Y130.077
G1 F1800 X69.247 Y133.735 E112.36314
G0 F3600 X69.813 Y133.735
G1 F1800 X66.154 Y130.077 E112.53522
G0 F3600 X66.72 Y130.077
G1 F1800 X70.379 Y133.735 E112.70731
G0 F3600 X70.944 Y133.735
G1 F1800 X67.286 Y130.077 E112.87937
G0 F3600 X67.851 Y130.077
G1 F1800 X71.51 Y133.735 E113.05145
G0 F3600 X72.076 Y133.735
G1 F1800 X68.417 Y130.077 E113.22354
G0 F3600 X68.983 Y130.077
G1 F1800 X72.641 Y133.735 E113.3956
G0 F3600 X73.207 Y133.735
G1 F1800 X69.548 Y130.077 E113.56768
G0 F3600 X70.114 Y130.077
G1 F1800 X73.773 Y133.735 E113.73977
G0 F3600 X74.338 Y133.735
G1 F1800 X70.68 Y130.077 E113.91183
G0 F3600 X71.245 Y130.077
G1 F1800 X74.904 Y133.735 E114.08391
G0 F3600 X75.47 Y133.735
G1 F1800 X71.811 Y130.077 E114.256
G0 F3600 X72.377 Y130.077
G1 F1800 X76.035 Y133.735 E114.42806
G0 F3600 X76.601 Y133.735
G1 F1800 X72.943 Y130.077 E114.60012
G0 F3600 X73.508 Y130.077
G1 F1800 X77.167 Y133.735 E114.77221
G0 F3600 X77.732 Y133.735
G1 F1800 X74.074 Y130.077 E114.94427
G0 F3600 X74.64 Y130.077
G1 F1800 X78.298 Y133.735 E115.11633
G0 F3600 X78.864 Y133.735
G1 F1800 X75.205 Y130.077 E115.28841
G0 F3600 X75.771 Y130.077
G1 F1800 X79.43 Y133.735 E115.4605
G0 F3600 X79.995 Y133.735
G1 F1800 X76.337 Y130.077 E115.63256
G0 F3600 X76.902 Y130.077
G1 F1800 X80.561 Y133.735 E115.80464
G0 F3600 X81.127 Y133.735
G1 F1800 X77.468 Y130.077 E115.97673
G0 F3600 X78.034 Y130.077
G1 F1800 X81.692 Y133.735 E116.14879
G0 F3600 X82.258 Y133.735
G1 F1800 X78.599 Y130.077 E116.32087
G0 F3600 X79.165 Y130.077
G1 F1800 X82.824 Y133.735 E116.49296
G0 F3600 X83.389 Y133.735
G1 F1800 X79.731 Y130.077 E116.66502
G0 F3600 X80.296 Y130.077
G1 F1800 X83.955 Y133.735 E116.8371
G0 F3600 X84.521 Y133.735
G1 F1800 X80.862 Y130.077 E117.00919
G0 F3600 X81.428 Y130.077
G1 F1800 X85.086 Y133.735 E117.18125
G0 F3600 X85.652 Y133.735
