;FLAVOR:Marlin
;TIME:12290
;Filament used: 11.3952m
;Layer height: 0.2
;MINX:24.701
;MINY:30.499
;MINZ:0.2
;MAXX:210.314
;MAXY:204.494
;MAXZ:21.8
;Generated with Cura_SteamEngine 4.1.0
M140 S60
M105
M190 S60
M104 S210
M105
M109 S210
M82 ;absolute extrusion mode
; Ender 3 Custom Start G-code
G28 ; Home all axes
G92 E0 ; Reset Extruder
G1 Z2.0 F3000 ; Move Z Axis up little to prevent scratching of Heat Bed
G1 X0.1 Y20 Z0.3 F5000.0 ; Move to start position
G1 X0.1 Y200.0 Z0.3 F1500.0 E15 ; Draw the first line
G1 X0.4 Y200.0 Z0.3 F5000.0 ; Move to side a little
G1 X0.4 Y20 Z0.3 F1500.0 E30 ; Draw the second line
G92 E0 ; Reset Extruder
G1 Z2.0 F3000 ; Move Z Axis up little to prevent scratching of Heat Bed
; End of custom start GCode
G92 E0
G92 E0
G1 F2400 E-5
;LAYER_COUNT:109
;LAYER:0
M107
M204 S500
M205 X10 Y10
;MESH:ManetaNevera_V1.1.stl
G0 F3600 X63.908 Y68.559 Z0.2
;TYPE:WALL-INNER
G1 F2400 E0
G1 F1800 X65.442 Y66.446 E0.08685
G1 X65.815 Y63.869 E0.17345
G1 X64.963 Y61.452 E0.25869
G1 X63.076 Y59.669 E0.34504
G1 X60.571 Y58.967 E0.43156
G1 X57.986 Y59.519 E0.51948
G1 X55.992 Y61.203 E0.60629
G1 X55.013 Y63.617 E0.69293
G1 X55.262 Y66.168 E0.77818
G1 X56.669 Y68.351 E0.86456
G1 X58.933 Y69.631 E0.95106
G1 X61.532 Y69.711 E1.03755
G1 X63.908 Y68.559 E1.12537
G0 F3600 X76.262 Y85.47
G0 X78.199 Y86.565
G0 X80.199 Y86.627
G0 X82.962 Y86.249
G1 F1800 X84.496 Y84.137 E1.21219
G1 X84.869 Y81.559 E1.29883
G1 X84.017 Y79.143 E1.38403
G1 X82.13 Y77.359 E1.4704
G1 X79.625 Y76.658 E1.55692
G1 X77.043 Y77.209 E1.64473
G1 X75.046 Y78.893 E1.73162
G1 X74.067 Y81.307 E1.81826
G1 X74.316 Y83.858 E1.90351
G1 X75.723 Y86.041 E1.98989
G1 X77.987 Y87.321 E2.07639
G1 X80.586 Y87.401 E2.16288
G1 X82.962 Y86.249 E2.2507
G0 F3600 X95.316 Y103.16
G0 X97.253 Y104.255
G0 X99.253 Y104.318
G0 X102.016 Y103.94
G1 F1800 X103.55 Y101.827 E2.33755
G1 X103.923 Y99.249 E2.42418
G1 X103.071 Y96.833 E2.50939
G1 X101.184 Y95.049 E2.59576
G1 X98.679 Y94.348 E2.68228
G1 X96.097 Y94.899 E2.77009
G1 X94.1 Y96.583 E2.85697
G1 X93.121 Y98.997 E2.94361
G1 X93.37 Y101.549 E3.0289
G1 X94.777 Y103.731 E3.11525
G1 X97.041 Y105.011 E3.20175
G1 X99.64 Y105.092 E3.28824
G1 X102.016 Y103.94 E3.37606
G0 F3600 X114.369 Y120.85
G0 X116.307 Y121.945
G0 X118.307 Y122.008
G0 X121.07 Y121.63
G1 F1800 X122.604 Y119.517 E3.46291
G1 X122.977 Y116.939 E3.54955
G1 X122.125 Y114.523 E3.63475
G1 X120.238 Y112.739 E3.72112
G1 X117.732 Y112.038 E3.80767
G1 X115.148 Y112.59 E3.89556
G1 X113.154 Y114.274 E3.98236
G1 X112.175 Y116.687 E4.06898
G1 X112.424 Y119.239 E4.15426
G1 X113.83 Y121.421 E4.24059
G1 X116.095 Y122.701 E4.32712
G1 X118.694 Y122.782 E4.41361
G1 X121.07 Y121.63 E4.50143
G0 F3600 X133.423 Y138.541
G0 X135.362 Y139.636
G0 X137.361 Y139.698
G0 X140.124 Y139.32
G1 F1800 X141.658 Y137.207 E4.58828
G1 X142.031 Y134.63 E4.67489
G1 X141.179 Y132.213 E4.76012
G1 X139.292 Y130.43 E4.84647
G1 X136.788 Y129.729 E4.93296
G1 X134.205 Y130.28 E5.0208
G1 X132.211 Y131.964 E5.10761
G1 X131.228 Y134.378 E5.1943
G1 X131.478 Y136.929 E5.27955
G1 X132.884 Y139.112 E5.36592
G1 X135.15 Y140.392 E5.45248
G1 X137.748 Y140.472 E5.53893
G1 X140.124 Y139.32 E5.62675
G0 F3600 X152.477 Y156.231
G0 X154.415 Y157.326
G0 X156.414 Y157.389
G0 X159.178 Y157.011
G1 F1800 X160.712 Y154.898 E5.7136
G1 X161.085 Y152.32 E5.80024
G1 X160.233 Y149.903 E5.88547
G1 X158.346 Y148.12 E5.97182
G1 X155.842 Y147.419 E6.05831
G1 X153.259 Y147.97 E6.14615
G1 X151.265 Y149.654 E6.23296
G1 X150.282 Y152.068 E6.31965
G1 X150.532 Y154.619 E6.4049
G1 X151.938 Y156.802 E6.49127
G1 X154.203 Y158.082 E6.5778
G1 X156.801 Y158.163 E6.66425
G1 X159.178 Y157.011 E6.7521
G0 F3600 X171.531 Y173.921
G0 X173.468 Y175.016
G0 X175.468 Y175.079
G0 X178.232 Y174.701
G1 F1800 X179.766 Y172.588 E6.83895
G1 X180.139 Y170.01 E6.92559
G1 X179.287 Y167.594 E7.01079
G1 X177.4 Y165.81 E7.09716
G1 X174.896 Y165.109 E7.18365
G1 X172.313 Y165.661 E7.2715
G1 X170.319 Y167.344 E7.35829
G1 X169.336 Y169.758 E7.44498
G1 X169.586 Y172.31 E7.53026
G1 X170.992 Y174.492 E7.6166
G1 X173.256 Y175.772 E7.7031
G1 X175.855 Y175.853 E7.78959
G1 X178.232 Y174.701 E7.87744
G0 F3600 X207.643 Y193.052
G1 F1800 X199.365 Y201.97 E8.28215
G1 X199.229 Y202.116 E8.28878
G1 X199.083 Y201.98 E8.29307
G1 X42.671 Y56.762 E15.39183
G1 X27.094 Y42.297 E16.09885
G1 X35.833 Y32.885 E16.52603
G1 X51.245 Y47.193 E17.22548
G1 X207.825 Y192.564 E24.3318
G1 X207.971 Y192.7 E24.33843
G1 X207.835 Y192.846 E24.34272
G1 X207.643 Y193.052 E24.35208
G0 F3600 X199.119 Y202.558
G1 F1800 X42.399 Y57.055 E31.4648
G1 X26.581 Y42.367 E32.18275
G1 X26.566 Y42.33 E32.18407
G1 X26.645 Y42.193 E32.18933
G1 X35.812 Y32.32 E32.63743
G1 X51.517 Y46.9 E33.35018
G1 X208.391 Y192.544 E40.46984
G1 X208.537 Y192.68 E40.47648
G1 X208.401 Y192.826 E40.48076
G1 X207.936 Y193.325 E40.50345
G1 X199.439 Y202.479 E40.91886
G1 X199.365 Y202.558 E40.92246
G1 X199.238 Y202.644 E40.92756
G1 X199.198 Y202.632 E40.92895
G1 X199.119 Y202.558 E40.93255
G0 F3600 X177.967 Y174.385
G1 F1800 X179.384 Y172.433 E41.01278
G1 X179.729 Y170.05 E41.09286
G1 X178.942 Y167.818 E41.17158
G1 X177.197 Y166.169 E41.25143
G1 X174.883 Y165.521 E41.33136
G1 X172.494 Y166.031 E41.41261
G1 X170.652 Y167.586 E41.49278
G1 X169.744 Y169.817 E41.5729
G1 X169.975 Y172.175 E41.6517
G1 X171.275 Y174.192 E41.73151
G1 X173.367 Y175.375 E41.81145
G1 X175.769 Y175.45 E41.89138
G1 X177.967 Y174.385 E41.97261
G0 F3600 X175.691 Y175.086
G0 X173.468 Y175.016
G0 X171.531 Y173.921
G0 X158.913 Y156.695
G1 F1800 X160.33 Y154.743 E42.05284
G1 X160.675 Y152.36 E42.13292
G1 X159.888 Y150.127 E42.21167
G1 X158.143 Y148.479 E42.2915
G1 X155.829 Y147.831 E42.37143
G1 X153.44 Y148.34 E42.45267
G1 X151.598 Y149.896 E42.53287
G1 X150.69 Y152.127 E42.61298
G1 X150.921 Y154.484 E42.69175
G1 X152.221 Y156.502 E42.77159
G1 X154.314 Y157.685 E42.85155
G1 X156.715 Y157.76 E42.93145
G1 X158.913 Y156.695 E43.01269
G0 F3600 X156.637 Y157.396
G0 X154.415 Y157.326
G0 X152.477 Y156.231
G0 X139.859 Y139.004
G1 F1800 X141.276 Y137.052 E43.09291
G1 X141.621 Y134.67 E43.17297
G1 X140.834 Y132.437 E43.25171
G1 X139.089 Y130.789 E43.33154
G1 X136.775 Y130.141 E43.41147
G1 X134.386 Y130.65 E43.49271
G1 X132.544 Y132.206 E43.57291
G1 X131.636 Y134.437 E43.65302
G1 X131.867 Y136.794 E43.73179
G1 X133.167 Y138.812 E43.81163
G1 X135.261 Y139.995 E43.89162
G1 X137.662 Y140.069 E43.97152
G1 X139.859 Y139.004 E44.05273
G0 F3600 X137.584 Y139.705
G0 X135.362 Y139.636
G0 X133.423 Y138.541
G0 X120.805 Y121.314
G1 F1800 X122.222 Y119.362 E44.13295
G1 X122.567 Y116.979 E44.21304
G1 X121.78 Y114.747 E44.29175
G1 X120.035 Y113.098 E44.37161
G1 X117.719 Y112.45 E44.4516
G1 X115.33 Y112.96 E44.53285
G1 X113.488 Y114.516 E44.61304
G1 X112.583 Y116.746 E44.69309
G1 X112.813 Y119.104 E44.77189
G1 X114.113 Y121.121 E44.8517
G1 X116.206 Y122.304 E44.93166
G1 X118.608 Y122.379 E45.01159
G1 X120.805 Y121.314 E45.0928
G0 F3600 X118.53 Y122.015
G0 X116.307 Y121.945
G0 X114.369 Y120.85
G0 X101.751 Y103.624
G1 F1800 X103.168 Y101.672 E45.17303
G1 X103.513 Y99.289 E45.25311
G1 X102.726 Y97.057 E45.33183
G1 X100.981 Y95.408 E45.41168
G1 X98.666 Y94.76 E45.49164
G1 X96.278 Y95.269 E45.57285
G1 X94.434 Y96.825 E45.6531
G1 X93.529 Y99.056 E45.73317
G1 X93.759 Y101.414 E45.81197
G1 X95.06 Y103.431 E45.8918
G1 X97.152 Y104.614 E45.97174
G1 X99.554 Y104.689 E46.05167
G1 X101.751 Y103.624 E46.13287
G0 F3600 X99.476 Y104.325
G0 X97.253 Y104.255
G0 X95.316 Y103.16
G0 X82.697 Y85.933
G1 F1800 X84.114 Y83.982 E46.21307
G1 X84.459 Y81.599 E46.29316
G1 X83.672 Y79.367 E46.37187
G1 X81.927 Y77.718 E46.45173
G1 X79.612 Y77.07 E46.53168
G1 X77.224 Y77.579 E46.61289
G1 X75.38 Y79.135 E46.69314
G1 X74.475 Y81.366 E46.77322
G1 X74.705 Y83.723 E46.85199
G1 X76.006 Y85.741 E46.93184
G1 X78.098 Y86.924 E47.01178
G1 X80.5 Y86.998 E47.09171
G1 X82.697 Y85.933 E47.17291
G0 F3600 X80.422 Y86.634
G0 X78.199 Y86.565
G0 X76.262 Y85.47
G0 X63.643 Y68.243
G1 F1800 X65.06 Y66.291 E47.25314
G1 X65.405 Y63.909 E47.33319
G1 X64.618 Y61.676 E47.41194
G1 X62.873 Y60.028 E47.49177
G1 X60.558 Y59.379 E47.57174
G1 X58.168 Y59.889 E47.65302
G1 X56.326 Y61.445 E47.73322
G1 X55.421 Y63.676 E47.81329
G1 X55.651 Y66.033 E47.89206
G1 X56.952 Y68.051 E47.97192
G1 X59.044 Y69.234 E48.05185
G1 X61.446 Y69.308 E48.13178
G1 X63.643 Y68.243 E48.21299
G0 F3600 X63.378 Y67.927
G1 F1800 X64.678 Y66.136 E48.28659
G1 X64.995 Y63.949 E48.36009
G1 X64.273 Y61.9 E48.43235
G1 X62.67 Y60.387 E48.50566
G1 X60.545 Y59.791 E48.57907
G1 X58.35 Y60.259 E48.65372
G1 X56.66 Y61.687 E48.7273
G1 X55.829 Y63.735 E48.80082
G1 X56.04 Y65.898 E48.8731
G1 X57.235 Y67.751 E48.94643
G1 X59.155 Y68.837 E49.0198
G1 X61.36 Y68.905 E49.09317
G1 X63.378 Y67.927 E49.16776
G0 F3600 X63.442 Y68.003
G0 X77.362 Y77.86
G0 X77.405 Y77.949
G1 F1800 X75.714 Y79.377 E49.24137
G1 X74.883 Y81.425 E49.31489
G1 X75.094 Y83.588 E49.38717
G1 X76.289 Y85.441 E49.4605
G1 X78.209 Y86.527 E49.53387
G1 X80.414 Y86.595 E49.60724
G1 X82.432 Y85.617 E49.68183
G1 X83.732 Y83.827 E49.75541
G1 X84.049 Y81.639 E49.82894
G1 X83.327 Y79.591 E49.90117
G1 X81.724 Y78.077 E49.97451
G1 X79.599 Y77.482 E50.0479
G1 X77.405 Y77.949 E50.12251
G0 F3600 X77.362 Y77.86
G0 X79.6 Y77.443
G0 X81.743 Y78.043
G0 X83.36 Y79.57
G0 X94.111 Y101.292
G0 X95.316 Y103.16
G0 X97.253 Y104.255
G0 X99.476 Y104.325
G0 X101.55 Y103.384
G0 X101.486 Y103.308
G1 F1800 X102.786 Y101.517 E50.19612
G1 X103.103 Y99.329 E50.26965
G1 X102.381 Y97.281 E50.34188
G1 X100.778 Y95.767 E50.41521
G1 X98.653 Y95.172 E50.48861
G1 X96.459 Y95.639 E50.56322
G1 X94.768 Y97.067 E50.63683
G1 X93.937 Y99.115 E50.71034
G1 X94.148 Y101.279 E50.78266
G1 X95.343 Y103.131 E50.85597
G1 X97.263 Y104.217 E50.92933
G1 X99.468 Y104.286 E51.00271
G1 X101.486 Y103.308 E51.07729
G0 F3600 X101.55 Y103.384
G0 X114.369 Y120.85
G0 X116.307 Y121.945
G0 X118.53 Y122.015
G0 X120.604 Y121.074
G0 X120.54 Y120.998
G1 F1800 X121.84 Y119.207 E51.1509
G1 X122.157 Y117.019 E51.22443
G1 X121.435 Y114.971 E51.29666
G1 X119.832 Y113.457 E51.37
G1 X117.706 Y112.862 E51.44342
G1 X115.512 Y113.33 E51.51804
G1 X113.822 Y114.758 E51.59163
G1 X112.991 Y116.805 E51.66511
G1 X113.202 Y118.969 E51.73742
G1 X114.396 Y120.821 E51.81071
G1 X116.317 Y121.907 E51.88411
G1 X118.522 Y121.976 E51.95748
G1 X120.54 Y120.998 E52.03207
G0 F3600 X120.604 Y121.074
G0 X134.523 Y130.931
G0 X134.567 Y131.02
G1 F1800 X132.877 Y132.448 E52.10566
G1 X132.044 Y134.496 E52.17919
G1 X132.256 Y136.659 E52.25148
G1 X133.45 Y138.512 E52.3248
G1 X135.372 Y139.598 E52.39822
G1 X137.576 Y139.666 E52.47156
G1 X139.594 Y138.688 E52.54615
G1 X140.894 Y136.897 E52.61976
G1 X141.211 Y134.71 E52.69326
G1 X140.489 Y132.661 E52.76551
G1 X138.886 Y131.148 E52.83883
G1 X136.762 Y130.553 E52.91219
G1 X134.567 Y131.02 E52.98683
G0 F3600 X134.523 Y130.931
G0 X136.763 Y130.514
G0 X138.905 Y131.114
G0 X140.36 Y132.487
G0 X153.577 Y148.621
G0 X153.621 Y148.71
G1 F1800 X151.931 Y150.138 E53.06042
G1 X151.098 Y152.186 E53.13396
G1 X151.31 Y154.349 E53.20624
G1 X152.504 Y156.202 E53.27956
G1 X154.425 Y157.288 E53.35296
G1 X156.629 Y157.357 E53.4263
G1 X158.648 Y156.379 E53.50091
G1 X159.948 Y154.588 E53.57452
G1 X160.265 Y152.4 E53.64805
G1 X159.543 Y150.351 E53.72031
G1 X157.94 Y148.838 E53.79362
G1 X155.816 Y148.243 E53.86699
G1 X153.621 Y148.71 E53.94163
G0 F3600 X153.577 Y148.621
G0 X155.817 Y148.204
G0 X157.959 Y148.804
G0 X159.576 Y150.33
G0 X170.327 Y172.053
G0 X171.531 Y173.921
G0 X173.468 Y175.016
G0 X175.691 Y175.086
G0 X177.766 Y174.145
G0 X177.702 Y174.069
G1 F1800 X179.002 Y172.278 E54.01524
G1 X179.319 Y170.09 E54.08877
G1 X178.597 Y168.042 E54.16099
G1 X176.994 Y166.528 E54.23433
G1 X174.87 Y165.933 E54.30769
G1 X172.675 Y166.401 E54.38234
G1 X170.985 Y167.828 E54.45591
G1 X170.152 Y169.876 E54.52944
G1 X170.364 Y172.04 E54.60176
G1 X171.558 Y173.892 E54.67505
G1 X173.478 Y174.978 E54.74842
G1 X175.683 Y175.047 E54.8218
G1 X177.702 Y174.069 E54.89641
G0 F3600 X177.766 Y174.145
G0 X208.156 Y193.53
G0 X208.229 Y193.598
G1 F1800 X199.631 Y202.86 E55.31674
G1 X199.304 Y203.083 E55.32991
G1 X198.993 Y202.987 E55.34073
G1 X42.127 Y57.348 E62.46008
G1 X26.242 Y42.598 E63.18107
G1 X26.122 Y42.297 E63.19184
G1 X26.321 Y41.955 E63.205
G1 X35.657 Y31.899 E63.66139
G1 X35.906 Y31.862 E63.66976
G1 X51.789 Y46.607 E64.39058
G1 X208.934 Y192.503 E71.52255
G1 X208.987 Y192.552 E71.52495
G1 X208.968 Y192.805 E71.53339
G1 X208.919 Y192.858 E71.53579
G1 X208.229 Y193.598 E71.56944
G0 F3600 X208.522 Y193.871
;TYPE:WALL-OUTER
G1 F1800 X199.895 Y203.165 E71.99121
G1 X199.371 Y203.522 E72.0123
G1 X198.788 Y203.342 E72.03259
G1 X41.855 Y57.641 E79.15498
G1 X25.903 Y42.829 E79.879
G1 X25.679 Y42.264 E79.89921
G1 X25.996 Y41.717 E79.92024
G1 X35.46 Y31.524 E80.38286
G1 X36.036 Y31.437 E80.40224
G1 X52.061 Y46.314 E81.1295
G1 X209.4 Y192.39 E88.27027
G1 X209.356 Y192.975 E88.28979
G1 X208.522 Y193.871 E88.3305
G0 F3600 X208.386 Y194.017
G0 X208.02 Y193.676
G0 X177.654 Y174.203
G0 X177.437 Y173.753
G1 F1800 X178.62 Y172.123 E88.39749
G1 X178.909 Y170.13 E88.46447
G1 X178.252 Y168.266 E88.5302
G1 X176.791 Y166.887 E88.59702
G1 X174.857 Y166.345 E88.66383
G1 X172.856 Y166.771 E88.73187
G1 X171.318 Y168.07 E88.79883
G1 X170.56 Y169.935 E88.86579
G1 X170.753 Y171.905 E88.93162
G1 X171.841 Y173.592 E88.99839
G1 X173.589 Y174.581 E89.06519
G1 X175.597 Y174.644 E89.13201
G1 X177.437 Y173.753 E89.20001
G0 F3600 X177.554 Y173.592
G0 X177.957 Y173.886
G0 X175.691 Y175.086
G0 X173.468 Y175.016
G0 X171.531 Y173.921
G0 X159.657 Y155.055
G0 X160.304 Y152.397
G0 X159.576 Y150.33
G0 X157.959 Y148.804
G0 X155.817 Y148.204
G0 X153.481 Y148.698
G0 X153.802 Y149.08
G1 F1800 X152.264 Y150.38 E89.26699
G1 X151.506 Y152.245 E89.33394
G1 X151.699 Y154.214 E89.39975
G1 X152.787 Y155.902 E89.46654
G1 X154.536 Y156.891 E89.53337
G1 X156.543 Y156.954 E89.60016
G1 X158.383 Y156.063 E89.66815
G1 X159.566 Y154.433 E89.73514
G1 X159.855 Y152.44 E89.80212
G1 X159.198 Y150.575 E89.86789
G1 X157.737 Y149.197 E89.93468
G1 X155.803 Y148.655 E90.00149
G1 X153.802 Y149.08 E90.06953
G0 F3600 X153.65 Y149.209
G0 X153.329 Y148.827
G0 X140.522 Y132.64
G0 X138.905 Y131.114
G0 X136.763 Y130.514
G0 X134.427 Y131.008
G0 X134.748 Y131.39
G1 F1800 X133.21 Y132.69 E90.13651
G1 X132.452 Y134.555 E90.20346
G1 X132.645 Y136.524 E90.26927
G1 X133.733 Y138.212 E90.33606
G1 X135.483 Y139.201 E90.40292
G1 X137.49 Y139.263 E90.4697
G1 X139.329 Y138.372 E90.53767
G1 X140.512 Y136.742 E90.60466
G1 X140.801 Y134.75 E90.6716
G1 X140.144 Y132.885 E90.73737
G1 X138.683 Y131.507 E90.80417
G1 X136.749 Y130.965 E90.87097
G1 X134.748 Y131.39 E90.93901
G0 F3600 X134.596 Y131.519
G0 X134.275 Y131.137
G0 X120.492 Y121.132
G0 X120.275 Y120.682
G1 F1800 X121.458 Y119.052 E91.006
G1 X121.747 Y117.059 E91.07298
G1 X121.09 Y115.195 E91.13871
G1 X119.629 Y113.816 E91.20553
G1 X117.693 Y113.274 E91.2724
G1 X115.694 Y113.7 E91.34038
G1 X114.156 Y115 E91.40736
G1 X113.399 Y116.864 E91.47428
G1 X113.591 Y118.834 E91.54011
G1 X114.679 Y120.521 E91.60688
G1 X116.428 Y121.51 E91.6737
G1 X118.436 Y121.573 E91.74052
G1 X120.275 Y120.682 E91.80849
G0 F3600 X120.392 Y120.521
G0 X120.795 Y120.815
G0 X118.53 Y122.015
G0 X116.307 Y121.945
G0 X114.369 Y120.85
G0 X102.495 Y101.984
G0 X103.142 Y99.326
G0 X102.414 Y97.26
G0 X100.797 Y95.733
G0 X98.654 Y95.133
G0 X96.319 Y95.627
G0 X96.64 Y96.009
G1 F1800 X95.102 Y97.309 E91.87547
G1 X94.345 Y99.174 E91.94241
G1 X94.537 Y101.144 E92.00825
G1 X95.626 Y102.831 E92.07503
G1 X97.374 Y103.82 E92.14183
G1 X99.382 Y103.883 E92.20865
G1 X101.221 Y102.992 E92.27662
G1 X102.404 Y101.362 E92.3436
G1 X102.693 Y99.369 E92.41059
G1 X102.036 Y97.505 E92.47632
G1 X100.575 Y96.126 E92.54314
G1 X98.64 Y95.584 E92.60998
G1 X96.64 Y96.009 E92.67798
G0 F3600 X96.488 Y96.138
G0 X96.167 Y95.755
G0 X83.36 Y79.57
G0 X81.743 Y78.043
G0 X79.6 Y77.443
G0 X77.265 Y77.937
G0 X77.586 Y78.319
G1 F1800 X76.048 Y79.619 E92.74496
G1 X75.291 Y81.484 E92.81191
G1 X75.483 Y83.453 E92.87771
G1 X76.572 Y85.141 E92.94452
G1 X78.32 Y86.13 E93.01132
G1 X80.328 Y86.192 E93.07814
G1 X82.167 Y85.301 E93.1461
G1 X83.35 Y83.672 E93.21306
