;FLAVOR:Marlin
;TIME:6170
;Filament used: 5.00863m
;Layer height: 0.2
;MINX:26.916
;MINY:23.215
;MINZ:0.2
;MAXX:198.992
;MAXY:210.566
;MAXZ:21.8
;Generated with Cura_SteamEngine 4.1.0
M140 S60
M105
M190 S60
M104 S210
M105
M109 S210
M82 ;absolute extrusion mode
; Ender 3 Custom Start G-code
G28 ; Home all axes
G92 E0 ; Reset Extruder
G1 Z2.0 F3000 ; Move Z Axis up little to prevent scratching of Heat Bed
G1 X0.1 Y20 Z0.3 F5000.0 ; Move to start position
G1 X0.1 Y200.0 Z0.3 F1500.0 E15 ; Draw the first line
G1 X0.4 Y200.0 Z0.3 F5000.0 ; Move to side a little
G1 X0.4 Y20 Z0.3 F1500.0 E30 ; Draw the second line
G92 E0 ; Reset Extruder
G1 Z2.0 F3000 ; Move Z Axis up little to prevent scratching of Heat Bed
; End of custom start GCode
G92 E0
G92 E0
G1 F2400 E-5
;LAYER_COUNT:109
;LAYER:0
M107
M204 S500
M205 X10 Y10
;MESH:ManetaNevera_V1.1.stl
G0 F3600 X64.027 Y62.19 Z0.2
;TYPE:WALL-INNER
G1 F2400 E0
G1 F1800 X65.029 Y60.182 E0.07464
G1 X64.985 Y57.977 E0.14799
G1 X63.92 Y56.044 E0.2214
G1 X62.083 Y54.828 E0.29467
G1 X59.922 Y54.593 E0.36697
G1 X57.865 Y55.401 E0.44047
G1 X56.417 Y57.074 E0.51406
G1 X55.923 Y59.263 E0.5887
G1 X56.495 Y61.394 E0.66209
G1 X57.988 Y63.015 E0.73539
G1 X60.029 Y63.762 E0.80767
G1 X62.22 Y63.469 E0.8812
G1 X64.027 Y62.19 E0.95483
G0 F3600 X64.102 Y62.255
G0 X73.794 Y76.288
G0 X73.883 Y76.333
G1 F1800 X73.39 Y78.522 E1.02946
G1 X73.962 Y80.654 E1.10288
G1 X75.456 Y82.274 E1.17617
G1 X77.496 Y83.021 E1.24843
G1 X79.686 Y82.728 E1.32192
G1 X81.492 Y81.45 E1.39551
G1 X82.495 Y79.443 E1.47013
G1 X82.451 Y77.236 E1.54355
G1 X81.387 Y75.304 E1.61691
G1 X79.549 Y74.088 E1.69021
G1 X77.388 Y73.853 E1.76251
G1 X75.331 Y74.661 E1.83601
G1 X73.883 Y76.333 E1.90958
G0 F3600 X73.794 Y76.288
G0 X73.351 Y78.522
G0 X73.927 Y80.673
G0 X75.434 Y82.307
G0 X97.029 Y93.31
G0 X98.882 Y94.536
G0 X99.955 Y96.486
G0 X100.001 Y98.709
G0 X99.035 Y100.774
G0 X98.96 Y100.709
G1 F1800 X99.962 Y98.701 E1.98422
G1 X99.917 Y96.496 E2.05757
G1 X98.853 Y94.563 E2.13096
G1 X97.016 Y93.347 E2.20423
G1 X94.855 Y93.112 E2.27653
G1 X92.798 Y93.92 E2.35004
G1 X91.35 Y95.593 E2.42363
G1 X90.856 Y97.782 E2.49827
G1 X91.428 Y99.913 E2.57165
G1 X92.922 Y101.533 E2.64495
G1 X94.962 Y102.279 E2.71719
G1 X97.152 Y101.989 E2.79067
G1 X98.96 Y100.709 E2.86435
G0 F3600 X99.035 Y100.774
G0 X108.727 Y114.807
G0 X108.816 Y114.852
G1 F1800 X108.323 Y117.041 E2.93898
G1 X108.894 Y119.173 E3.01239
G1 X110.389 Y120.793 E3.08571
G1 X112.428 Y121.538 E3.15791
G1 X114.619 Y121.248 E3.23142
G1 X116.425 Y119.969 E3.30502
G1 X117.428 Y117.962 E3.37965
G1 X117.384 Y115.755 E3.45307
G1 X116.319 Y113.823 E3.52644
G1 X114.482 Y112.606 E3.59973
G1 X112.321 Y112.372 E3.67203
G1 X110.264 Y113.179 E3.74552
G1 X108.816 Y114.852 E3.81911
G0 F3600 X108.727 Y114.807
G0 X108.284 Y117.041
G0 X108.859 Y119.192
G0 X110.367 Y120.826
G0 X131.962 Y131.829
G0 X133.815 Y133.055
G0 X134.888 Y135.005
G0 X134.934 Y137.228
G0 X133.967 Y139.294
G0 X133.892 Y139.229
G1 F1800 X134.895 Y137.22 E3.8938
G1 X134.85 Y135.015 E3.96715
G1 X133.786 Y133.082 E4.04054
G1 X131.949 Y131.866 E4.11381
G1 X129.787 Y131.631 E4.18614
G1 X127.73 Y132.439 E4.25965
G1 X126.283 Y134.112 E4.33322
G1 X125.789 Y136.301 E4.40786
G1 X126.361 Y138.432 E4.48124
G1 X127.855 Y140.052 E4.55454
G1 X129.895 Y140.799 E4.62679
G1 X132.086 Y140.506 E4.70032
G1 X133.892 Y139.229 E4.77388
G0 F3600 X133.967 Y139.294
G0 X143.66 Y153.326
G0 X143.749 Y153.371
G1 F1800 X143.256 Y155.56 E4.84851
G1 X143.827 Y157.692 E4.92192
G1 X145.321 Y159.311 E4.9952
G1 X147.361 Y160.057 E5.06744
G1 X149.552 Y159.767 E5.14095
G1 X151.358 Y158.488 E5.21455
G1 X152.361 Y156.481 E5.28918
G1 X152.317 Y154.274 E5.3626
G1 X151.252 Y152.341 E5.436
G1 X149.415 Y151.125 E5.50928
G1 X147.254 Y150.89 E5.58157
G1 X145.197 Y151.698 E5.65508
G1 X143.749 Y153.371 E5.72867
G0 F3600 X143.66 Y153.326
G0 X143.217 Y155.56
G0 X143.792 Y157.711
G0 X145.299 Y159.344
G0 X166.894 Y170.347
G0 X168.748 Y171.574
G0 X169.821 Y173.525
G0 X169.866 Y175.748
G0 X168.899 Y177.812
G0 X168.824 Y177.747
G1 F1800 X169.827 Y175.74 E5.8033
G1 X169.783 Y173.535 E5.87665
G1 X168.719 Y171.601 E5.95007
G1 X166.881 Y170.384 E6.02338
G1 X164.72 Y170.15 E6.09568
G1 X162.663 Y170.957 E6.16917
G1 X161.216 Y172.63 E6.24274
G1 X160.722 Y174.82 E6.31741
G1 X161.294 Y176.951 E6.3908
G1 X162.788 Y178.571 E6.46409
G1 X164.827 Y179.318 E6.53632
G1 X167.018 Y179.025 E6.60984
G1 X168.824 Y177.747 E6.68343
G0 F3600 X168.899 Y177.812
G0 X186.967 Y209.126
G0 X186.892 Y209.192
G1 F1800 X42.842 Y50.352 E13.81542
G1 X28.284 Y34.299 E14.53621
G1 X28.325 Y34.051 E14.54457
G1 X38.489 Y24.831 E15.00099
G1 X38.832 Y24.637 E15.01409
G1 X39.134 Y24.76 E15.02494
G1 X53.697 Y40.818 E15.74596
G1 X197.491 Y199.374 E22.86524
G1 X197.585 Y199.688 E22.87614
G1 X197.358 Y200.011 E22.88927
G1 X187.248 Y209.18 E23.34322
G1 X187.195 Y209.228 E23.3456
G1 X186.94 Y209.245 E23.3541
G1 X186.892 Y209.192 E23.35648
G0 F3600 X186.967 Y209.126
G0 X168.957 Y177.702
G0 X168.511 Y177.478
;TYPE:WALL-OUTER
G1 F1800 X169.425 Y175.649 E23.42448
G1 X169.385 Y173.641 E23.49128
G1 X168.416 Y171.88 E23.55814
G1 X166.741 Y170.771 E23.62495
G1 X164.775 Y170.558 E23.69072
G1 X162.901 Y171.293 E23.75767
G1 X161.584 Y172.816 E23.82464
G1 X161.134 Y174.812 E23.8927
G1 X161.655 Y176.752 E23.95951
G1 X163.016 Y178.229 E24.02631
G1 X164.872 Y178.908 E24.09204
G1 X166.867 Y178.642 E24.15898
G1 X168.511 Y177.478 E24.22598
G0 F3600 X168.6 Y177.3
G0 X169.046 Y177.524
G0 X169.866 Y175.748
G0 X169.821 Y173.525
G0 X168.748 Y171.574
G0 X150.009 Y159.489
G0 X147.357 Y160.096
G0 X145.299 Y159.344
G0 X143.792 Y157.711
G0 X143.217 Y155.56
G0 X143.631 Y153.447
G0 X144.117 Y153.557
G1 F1800 X143.668 Y155.552 E24.29399
G1 X144.188 Y157.493 E24.36083
G1 X145.549 Y158.969 E24.4276
G1 X147.406 Y159.648 E24.49337
G1 X149.401 Y159.383 E24.5603
G1 X151.045 Y158.219 E24.6273
G1 X151.959 Y156.39 E24.69531
G1 X151.919 Y154.381 E24.76214
G1 X150.949 Y152.62 E24.82901
G1 X149.275 Y151.512 E24.89578
G1 X147.309 Y151.298 E24.96155
G1 X145.435 Y152.034 E25.02852
G1 X144.117 Y153.557 E25.09551
G0 F3600 X144.074 Y153.752
G0 X143.587 Y153.642
G0 X134.025 Y139.184
G0 X133.579 Y138.96
G1 F1800 X134.493 Y137.13 E25.16354
G1 X134.452 Y135.122 E25.23034
G1 X133.483 Y133.361 E25.2972
G1 X131.809 Y132.253 E25.36396
G1 X129.842 Y132.039 E25.42977
G1 X127.968 Y132.775 E25.49674
G1 X126.651 Y134.298 E25.56371
G1 X126.201 Y136.293 E25.63173
G1 X126.722 Y138.233 E25.69854
G1 X128.083 Y139.71 E25.76534
G1 X129.94 Y140.389 E25.8311
G1 X131.935 Y140.123 E25.89804
G1 X133.579 Y138.96 E25.96502
G0 F3600 X133.668 Y138.782
G0 X134.114 Y139.006
G0 X134.934 Y137.228
G0 X134.888 Y135.005
G0 X133.815 Y133.055
G0 X115.077 Y120.97
G0 X112.424 Y121.577
G0 X110.367 Y120.826
G0 X108.859 Y119.192
G0 X108.284 Y117.041
G0 X108.698 Y114.928
G0 X109.184 Y115.038
G1 F1800 X108.735 Y117.033 E26.03304
G1 X109.255 Y118.974 E26.09987
G1 X110.617 Y120.451 E26.16669
G1 X112.473 Y121.129 E26.23241
G1 X114.468 Y120.864 E26.29935
G1 X116.112 Y119.7 E26.36635
G1 X117.026 Y117.871 E26.43436
G1 X116.986 Y115.862 E26.50119
G1 X116.016 Y114.102 E26.56803
G1 X114.342 Y112.993 E26.63481
G1 X112.376 Y112.78 E26.70059
G1 X110.502 Y113.515 E26.76754
G1 X109.184 Y115.038 E26.83453
G0 F3600 X109.141 Y115.233
G0 X108.654 Y115.123
G0 X99.093 Y100.664
G0 X98.647 Y100.441
G1 F1800 X99.56 Y98.611 E26.90255
G1 X99.519 Y96.603 E26.96935
G1 X98.55 Y94.842 E27.0362
G1 X96.876 Y93.734 E27.10297
G1 X94.91 Y93.52 E27.16875
G1 X93.036 Y94.256 E27.23571
G1 X91.718 Y95.779 E27.3027
G1 X91.268 Y97.774 E27.37072
G1 X91.789 Y99.714 E27.43753
G1 X93.15 Y101.191 E27.50433
G1 X95.007 Y101.87 E27.5701
G1 X97.002 Y101.605 E27.63703
G1 X98.647 Y100.441 E27.70406
G0 F3600 X98.736 Y100.263
G0 X99.182 Y100.486
G0 X100.001 Y98.709
G0 X99.955 Y96.486
G0 X98.882 Y94.536
G0 X80.143 Y82.45
G0 X77.492 Y83.06
G0 X75.434 Y82.307
G0 X73.927 Y80.673
G0 X73.351 Y78.522
G0 X73.765 Y76.409
G0 X74.251 Y76.519
G1 F1800 X73.802 Y78.514 E27.77207
G1 X74.323 Y80.455 E27.83892
G1 X75.684 Y81.932 E27.90572
G1 X77.541 Y82.611 E27.97148
G1 X79.535 Y82.345 E28.03839
G1 X81.179 Y81.181 E28.10539
G1 X82.093 Y79.352 E28.17339
G1 X82.053 Y77.343 E28.24022
G1 X81.084 Y75.583 E28.30705
G1 X79.409 Y74.475 E28.37384
G1 X77.443 Y74.261 E28.43962
G1 X75.569 Y74.997 E28.50658
G1 X74.251 Y76.519 E28.57355
G0 F3600 X74.208 Y76.714
G0 X73.721 Y76.604
G0 X64.16 Y62.145
G0 X63.714 Y61.922
G1 F1800 X64.627 Y60.092 E28.64157
G1 X64.587 Y58.084 E28.70837
G1 X63.617 Y56.323 E28.77524
G1 X61.943 Y55.215 E28.84201
G1 X59.977 Y55.001 E28.90778
G1 X58.103 Y55.737 E28.97475
G1 X56.785 Y57.26 E29.04174
G1 X56.335 Y59.255 E29.10976
G1 X56.856 Y61.195 E29.17657
G1 X58.217 Y62.673 E29.24339
G1 X60.074 Y63.352 E29.30916
G1 X62.069 Y63.086 E29.3761
G1 X63.714 Y61.922 E29.44312
G0 F3600 X63.803 Y61.744
G0 X64.249 Y61.967
G0 X65.068 Y60.19
G0 X65.023 Y57.967
G0 X64.057 Y56.212
G0 X53.623 Y40.885
G0 X53.993 Y40.549
G1 F1800 X197.848 Y199.172 E36.56542
G1 X198.023 Y199.759 E36.58579
G1 X197.659 Y200.278 E36.60687
G1 X187.36 Y209.618 E37.0693
G1 X186.773 Y209.656 E37.08887
G1 X42.546 Y50.621 E44.22962
G1 X27.859 Y34.425 E44.95681
G1 X27.867 Y34.372 E44.95859
G1 X27.952 Y33.849 E44.97622
G1 X38.253 Y24.505 E45.43878
G1 X38.804 Y24.194 E45.45983
G1 X39.37 Y24.425 E45.48016
G1 X53.993 Y40.549 E46.20414
G0 F3600 X54.127 Y40.697
G0 X53.408 Y41.08
;TYPE:SKIN
G1 F1800 X197.143 Y199.571 E53.3205
G1 X197.157 Y199.618 E53.32213
G1 X197.062 Y199.753 E53.32762
G1 X187.073 Y208.812 E53.77614
G1 X43.131 Y50.09 E60.90281
G1 X28.73 Y34.21 E61.61583
G1 X38.72 Y25.148 E62.06443
G1 X38.859 Y25.069 E62.06975
G1 X38.904 Y25.087 E62.07136
G1 X53.408 Y41.08 E62.78946
G0 F3600 X59.869 Y54.195
G1 F1800 X57.633 Y55.073 E62.86935
G1 X56.058 Y56.893 E62.94941
G1 X55.521 Y59.271 E63.03049
G1 X56.144 Y61.587 E63.11026
G1 X57.765 Y63.349 E63.18989
G1 X59.986 Y64.162 E63.26856
G1 X62.367 Y63.843 E63.34846
G1 X64.333 Y62.452 E63.42856
G1 X65.421 Y60.27 E63.50965
G1 X65.373 Y57.873 E63.58939
G1 X64.215 Y55.771 E63.66921
G1 X62.219 Y54.45 E63.74882
G1 X59.869 Y54.195 E63.82744
G0 F3600 X62.096 Y54.791
G0 X63.949 Y56.017
G0 X75.099 Y74.333
G1 F1800 X73.524 Y76.152 E63.90747
G1 X72.988 Y78.53 E63.98855
G1 X73.611 Y80.847 E64.06835
G1 X75.233 Y82.608 E64.14798
G1 X77.453 Y83.421 E64.22661
G1 X79.833 Y83.102 E64.30648
G1 X81.797 Y81.712 E64.38651
G1 X82.887 Y79.531 E64.4676
G1 X82.839 Y77.132 E64.54741
G1 X81.682 Y75.031 E64.62718
G1 X79.685 Y73.71 E64.70682
G1 X77.335 Y73.455 E64.78544
G1 X75.099 Y74.333 E64.86534
G0 F3600 X77.383 Y73.814
G0 X79.562 Y74.051
G0 X81.416 Y75.277
G0 X92.566 Y93.592
G1 F1800 X90.991 Y95.412 E64.94539
G1 X90.454 Y97.79 E65.02648
G1 X91.077 Y100.106 E65.10624
G1 X92.7 Y101.867 E65.1859
G1 X94.919 Y102.678 E65.26448
G1 X97.298 Y102.363 E65.34429
G1 X99.266 Y100.971 E65.42447
G1 X100.354 Y98.789 E65.50556
G1 X100.305 Y96.392 E65.5853
G1 X99.148 Y94.29 E65.66511
G1 X97.152 Y92.969 E65.74472
G1 X94.802 Y92.714 E65.82334
G1 X92.566 Y93.592 E65.90324
G0 F3600 X94.85 Y93.073
G0 X97.029 Y93.31
G0 X98.882 Y94.536
G0 X110.032 Y112.851
G1 F1800 X108.457 Y114.671 E65.98329
G1 X107.921 Y117.049 E66.06436
G1 X108.543 Y119.366 E66.14416
G1 X110.167 Y121.127 E66.22383
G1 X112.385 Y121.937 E66.30237
G1 X114.766 Y121.622 E66.38225
G1 X116.73 Y120.231 E66.4623
G1 X117.82 Y118.05 E66.54339
G1 X117.772 Y115.651 E66.6232
G1 X116.614 Y113.55 E66.70299
G1 X114.618 Y112.228 E66.78262
G1 X112.268 Y111.974 E66.86124
G1 X110.032 Y112.851 E66.94112
G0 F3600 X112.316 Y112.333
G0 X114.495 Y112.569
G0 X116.348 Y113.796
G0 X127.498 Y132.111
G1 F1800 X125.924 Y133.931 E67.02115
G1 X125.387 Y136.309 E67.10224
G1 X126.01 Y138.625 E67.18201
G1 X127.632 Y140.386 E67.26164
G1 X129.852 Y141.199 E67.34027
G1 X132.233 Y140.88 E67.42017
G1 X134.197 Y139.491 E67.50018
G1 X135.287 Y137.308 E67.58133
G1 X135.238 Y134.911 E67.66107
G1 X134.081 Y132.809 E67.74088
G1 X132.085 Y131.488 E67.82049
G1 X129.734 Y131.233 E67.89914
G1 X127.498 Y132.111 E67.97904
G0 F3600 X129.782 Y131.592
G0 X131.962 Y131.829
G0 X133.815 Y133.055
G0 X144.965 Y151.37
G1 F1800 X143.39 Y153.19 E68.05909
G1 X142.854 Y155.568 E68.14017
G1 X143.476 Y157.885 E68.21996
G1 X145.099 Y159.645 E68.29959
G1 X147.317 Y160.456 E68.37813
G1 X149.699 Y160.141 E68.45805
G1 X151.663 Y158.75 E68.5381
G1 X152.753 Y156.569 E68.61919
G1 X152.705 Y154.17 E68.699
G1 X151.547 Y152.068 E68.77882
G1 X149.551 Y150.747 E68.85843
G1 X147.201 Y150.492 E68.93705
G1 X144.965 Y151.37 E69.01695
G0 F3600 X147.249 Y150.851
G0 X149.428 Y151.088
G0 X151.281 Y152.314
G0 X162.431 Y170.629
G1 F1800 X160.857 Y172.449 E69.09698
G1 X160.32 Y174.828 E69.17809
G1 X160.943 Y177.144 E69.25786
G1 X162.565 Y178.905 E69.33749
G1 X164.784 Y179.718 E69.4161
G1 X167.165 Y179.399 E69.496
G1 X169.129 Y178.009 E69.57602
G1 X170.219 Y175.828 E69.65712
G1 X170.171 Y173.431 E69.73686
G1 X169.014 Y171.328 E69.81669
G1 X167.017 Y170.006 E69.89635
G1 X164.667 Y169.752 E69.97496
G1 X162.431 Y170.629 E70.05485
G0 F3600 X161.181 Y172.612
G0 X160.683 Y174.82
G0 X161.259 Y176.97
G0 X187.369 Y208.299
G1 F1800 X181.824 Y202.754 E70.31567
G1 X181.754 Y202.684
G0 F3600 X187.666 Y208.03
G1 F1800 X176.314 Y196.678 E70.84963
G1 X176.244 Y196.608
G0 F3600 X170.804 Y190.603
G1 F1800 X187.962 Y207.761 E71.65669
G0 F3600 X188.259 Y207.492
G1 F1800 X165.293 Y184.527 E72.73692
G1 X165.223 Y184.457
G0 F3600 X165.143 Y179.851
G1 F1800 X190.632 Y205.34 E73.93584
G0 F3600 X190.335 Y205.608
G1 F1800 X164.55 Y179.823 E75.14869
G1 X164.48 Y179.753
G0 F3600 X163.657 Y179.496
G1 F1800 X190.039 Y205.878 E76.38962
G0 F3600 X189.742 Y206.147
G1 F1800 X162.764 Y179.169 E77.65858
G1 X162.694 Y179.099
G0 F3600 X160.763 Y177.168
G1 F1800 X137.744 Y154.149 E78.74132
G1 X137.674 Y154.079
G0 F3600 X142.753 Y155.198
G1 F1800 X128.42 Y140.865 E79.4155
G1 X128.35 Y140.795
G0 F3600 X129.312 Y141.192
G1 F1800 X142.857 Y154.736 E80.0526
G0 F3600 X142.961 Y154.275
G1 F1800 X130.04 Y141.354 E80.66036
G0 F3600 X130.539 Y141.287
G1 F1800 X143.065 Y153.813 E81.24955
G0 F3600 X143.169 Y153.351
G1 F1800 X131.038 Y141.221 E81.82013
G0 F3600 X131.538 Y141.154
G1 F1800 X143.346 Y152.963 E82.37556
G0 F3600 X143.609 Y152.66
G1 F1800 X132.036 Y141.087 E82.91992
G0 F3600 X132.457 Y140.942
G1 F1800 X143.872 Y152.357 E83.45685
G0 F3600 X144.134 Y152.054
G1 F1800 X132.788 Y140.707 E83.99055
G0 F3600 X133.119 Y140.473
G1 F1800 X144.396 Y151.75 E84.52099
G0 F3600 X144.659 Y151.447
G1 F1800 X133.45 Y140.239 E85.0482
G0 F3600 X133.782 Y140.005
G1 F1800 X144.956 Y151.178 E85.57377
G0 F3600 X145.362 Y151.019
G1 F1800 X134.113 Y139.77 E86.10289
G0 F3600 X134.397 Y139.488
G1 F1800 X145.768 Y150.859 E86.63774
G0 F3600 X146.175 Y150.7
G1 F1800 X134.586 Y139.111 E87.18285
G0 F3600 X134.774 Y138.734
G1 F1800 X146.581 Y150.541 E87.73822
G0 F3600 X146.987 Y150.381
G1 F1800 X134.963 Y138.357 E88.30379
G0 F3600 X135.151 Y137.979
G1 F1800 X147.515 Y150.344 E88.88538
G0 F3600 X148.15 Y150.412
G1 F1800 X135.34 Y137.602 E89.48792
G0 F3600 X135.463 Y137.161
G1 F1800 X148.784 Y150.481 E90.11448
G0 F3600 X149.418 Y150.55
G1 F1800 X135.451 Y136.583 E90.77144
G0 F3600 X135.439 Y136.005
G1 F1800 X150.773 Y151.339 E91.49271
G1 X150.843 Y151.409
G0 F3600 X152.058 Y152.624
G1 F1800 X176.399 Y176.964 E92.63761
G1 X176.469 Y177.034
G0 F3600 X170.336 Y175.993
G1 F1800 X195.378 Y201.035 E93.81551
G0 F3600 X195.674 Y200.765
G1 F1800 X170.392 Y175.483 E95.0047
G0 F3600 X170.38 Y174.905
G1 F1800 X195.971 Y200.497 E96.20844
G0 F3600 X196.268 Y200.227
G1 F1800 X170.368 Y174.327 E97.4267
G0 F3600 X170.356 Y173.75
G1 F1800 X196.565 Y199.959 E98.65949
G0 F3600 X196.862 Y199.69
G1 F1800 X170.097 Y172.925 E99.91843
G1 X170.027 Y172.855
G0 F3600 X169.406 Y171.669
G1 F1800 X192.931 Y195.193 E101.02495
G1 X193.001 Y195.263
G0 F3600 X195.081 Y201.304
G1 F1800 X170.148 Y176.37 E102.19775
G0 F3600 X169.959 Y176.747
G1 F1800 X194.785 Y201.573 E103.36549
G0 F3600 X194.488 Y201.842
G1 F1800 X169.77 Y177.124 E104.52815
G0 F3600 X169.582 Y177.502
G1 F1800 X194.192 Y202.111 E105.6857
G0 F3600 X193.895 Y202.38
G1 F1800 X169.393 Y177.879 E106.83818
