; HEADER_BLOCK_START
; generated by OrcaSlicer 1.9.1 on 2024-03-10 at 13:51:49
; total layer number: 148
; filament_density: 1.24
; filament_diameter: 1.75
; max_z_height: 23.72
; HEADER_BLOCK_END

; THUMBNAIL_BLOCK_START

;
; THUMBNAIL_BLOCK_END

; THUMBNAIL_BLOCK_START

;
; THUMBNAIL_BLOCK_END

; external perimeters extrusion width = 0.40mm
; perimeters extrusion width = 0.42mm
; infill extrusion width = 0.45mm
; solid infill extrusion width = 0.40mm
; top infill extrusion width = 0.40mm
; first layer extrusion width = 0.50mm

; EXECUTABLE_BLOCK_START
EXCLUDE_OBJECT_DEFINE NAME=ManetaNevera_V1.2.stl_id_0_copy_0 CENTER=109.834,109.663 POLYGON=[[19.6713,31.8127],[19.8511,30.2194],[29.7526,20.3219],[31.1105,19.4691],[32.6238,19.999],[199.468,186.91],[199.997,188.423],[199.144,189.781],[189.242,199.678],[187.649,199.857],[19.6713,31.8127]]
M73 P0 R69
;TYPE:Custom
M220 S100 ;Reset Feedrate 
M221 S100 ;Reset Flowrate 
 
M140 S60 ;Set final bed temp  
G28 ;Home 
 
G92 E0 ;Reset Extruder 
G1 Z2.0 F3000 ;Move Z Axis up 
M104 S215 ;Set final nozzle temp  
G1 X-2.0 Y20 Z0.28 F5000.0 ;Move to start position 
M190 S60 ;Wait for bed temp to stabilize  
M109 S215 ;Wait for nozzle temp to stabilize  
G1 X-2.0 Y145.0 Z0.28 F1500.0 E15 ;Draw the first line 
G1 X-1.7 Y145.0 Z0.28 F5000.0 ;Move to side a little 
M73 P0 R68
G1 X-1.7 Y20 Z0.28 F1500.0 E30 ;Draw the second line 
G92 E0 ;Reset Extruder 
G1 E-1.0000 F1800 ;Retract a bit 
G1 Z2.0 F3000 ;Move Z Axis up 
G1 E0.0000 F1800
G90
G21
M83 ; use relative distances for extrusion
; filament start gcode
M106 S0
;LAYER_CHANGE
;Z:0.2
;HEIGHT:0.2
;BEFORE_LAYER_CHANGE
;0.2
G92 E0

G1 E-.5 F2400
;_SET_FAN_SPEED_CHANGING_LAYER
SET_VELOCITY_LIMIT ACCEL=500 ACCEL_TO_DECEL=250
SET_VELOCITY_LIMIT SQUARE_CORNER_VELOCITY=10
; printing object ManetaNevera_V1.2.stl id:0 copy 0
EXCLUDE_OBJECT_START NAME=ManetaNevera_V1.2.stl_id_0_copy_0
G1 Z.2 F18000
G1 X18.179 Y27.491
G1 Z.2
G1 E.5 F2400
;TYPE:Brim
;WIDTH:0.5
G1 F3000
G1 X19.312 Y27.022 E.04567
G1 X20.528 Y26.862 E.04567
G1 X21.744 Y27.022 E.04567
G1 X22.877 Y27.491 E.04567
G1 X23.213 Y27.749 E.01578
G1 X20.451 Y30.51 E.14546
G1 X20.406 Y30.572 E.00285
G1 X20.356 Y30.705 E.00529
G1 X20.272 Y31.452 E.02797
G1 X20.284 Y31.553 E.00379
G1 X20.366 Y31.721 E.00698
G1 X23.666 Y35.022 E.17384
G1 X22.877 Y35.627 E.03705
G1 X21.744 Y36.096 E.04567
G1 X20.528 Y36.257 E.04567
G1 X19.312 Y36.096 E.04567
G1 X18.179 Y35.627 E.04567
G1 X17.206 Y34.881 E.04567
G1 X16.46 Y33.908 E.04567
G1 X15.991 Y32.775 E.04567
G1 X15.831 Y31.559 E.04567
G1 X15.991 Y30.343 E.04567
G1 X16.46 Y29.21 E.04567
G1 X17.206 Y28.238 E.04567
G1 X18.147 Y27.515 E.04418
G1 X18.395 Y27.901 F18000
G1 F3000
G1 X19.449 Y27.465 E.04249
G1 X20.51 Y27.325 E.03985
G1 X21.606 Y27.465 E.04117
G1 X22.3 Y27.747 E.02788
G1 X22.378 Y27.831 E.00426
G1 X22.344 Y27.971 E.00535
G1 X20.133 Y30.181 E.11644
G1 X20.037 Y30.303 E.00581
G1 X19.977 Y30.416 E.00476
G1 X19.901 Y30.667 E.00975
G1 X19.819 Y31.389 E.02709
G1 X19.829 Y31.596 E.00771
G1 X19.879 Y31.765 E.00656
G1 X19.951 Y31.913 E.00611
G1 X20.051 Y32.052 E.00638
G1 X22.864 Y34.866 E.14818
G1 X22.903 Y34.973 E.00426
G1 X22.85 Y35.071 E.00417
G1 X22.629 Y35.235 E.01023
G1 X21.606 Y35.653 E.04117
G1 X20.546 Y35.793 E.03985
G1 X19.449 Y35.653 E.04117
G1 X18.395 Y35.217 E.04249
G1 X17.547 Y34.566 E.03985
G1 X16.87 Y33.692 E.04117
G1 X16.434 Y32.638 E.04249
G1 X16.294 Y31.577 E.03985
G1 X16.434 Y30.481 E.04117
G1 X16.87 Y29.427 E.04249
G1 X17.521 Y28.578 E.03985
G1 X18.364 Y27.926 E.03968
G1 X18.612 Y28.311 F18000
G1 F3000
G1 X19.587 Y27.908 E.03928
G1 X20.529 Y27.788 E.03537
G1 X21.45 Y27.906 E.0346
G1 X21.547 Y27.966 E.00426
G1 X21.565 Y28.079 E.00426
G1 X21.53 Y28.139 E.00257
G1 X19.817 Y29.851 E.09021
G1 X19.63 Y30.096 E.01149
G1 X19.538 Y30.291 E.00801
G1 X19.445 Y30.626 E.01295
G1 X19.366 Y31.329 E.02634
G1 X19.373 Y31.612 E.01055
G1 X19.472 Y31.974 E.01398
G1 X19.584 Y32.184 E.00887
G1 X19.734 Y32.381 E.00924
G1 X22.103 Y34.751 E.12479
G1 X22.143 Y34.858 E.00426
G1 X22.058 Y34.975 E.00537
G1 X21.471 Y35.21 E.02357
G1 X20.527 Y35.33 E.03541
G1 X19.586 Y35.21 E.03534
G1 X18.612 Y34.807 E.03928
G1 X17.861 Y34.225 E.03537
G1 X17.28 Y33.475 E.03534
G1 X16.877 Y32.5 E.03928
G1 X16.757 Y31.558 E.03537
G1 X16.877 Y30.617 E.03534
G1 X17.28 Y29.643 E.03928
G1 X17.862 Y28.892 E.03537
G1 X18.581 Y28.336 E.03385
G1 X18.861 Y28.703 F18000
G1 F3000
G1 X19.688 Y28.361 E.03335
G1 X20.41 Y28.264 E.02715
G1 X20.52 Y28.298 E.00426
G1 X20.565 Y28.403 E.00426
G1 X20.525 Y28.497 E.0038
G1 X19.501 Y29.52 E.05391
G1 X19.213 Y29.911 E.01809
G1 X19.095 Y30.178 E.01086
G1 X18.99 Y30.584 E.01564
G1 X18.913 Y31.269 E.02567
G1 X18.916 Y31.615 E.01288
G1 X18.934 Y31.741 E.00476
G1 X19.028 Y32.083 E.01321
G1 X19.177 Y32.391 E.01273
G1 X19.418 Y32.711 E.01493
G1 X21.259 Y34.554 E.09701
G1 X21.299 Y34.661 E.00426
G1 X21.243 Y34.761 E.00426
G1 X21.179 Y34.787 E.00257
G1 X20.545 Y34.867 E.02383
G1 X19.687 Y34.757 E.03219
G1 X18.86 Y34.415 E.03335
G1 X18.201 Y33.91 E.03093
G1 X17.672 Y33.226 E.03219
G1 X17.329 Y32.399 E.03335
G1 X17.22 Y31.576 E.03093
G1 X17.33 Y30.719 E.03219
G1 X17.672 Y29.891 E.03335
G1 X18.202 Y29.207 E.03221
G1 X18.829 Y28.728 E.02942
G1 X18.78 Y29.4 F18000
G1 F3000
G1 X18.872 Y29.469 E.00426
G1 X18.862 Y29.616 E.0055
G1 X18.68 Y29.987 E.01538
G1 X18.55 Y30.462 E.01837
G1 X18.46 Y31.21 E.02805
G1 X18.465 Y31.689 E.01784
G1 X18.495 Y31.869 E.00681
G1 X18.585 Y32.194 E.01254
G1 X18.761 Y32.58 E.0158
G1 X19.048 Y32.98 E.01833
G1 X20.171 Y34.111 E.05936
G1 X20.21 Y34.219 E.00426
G1 X20.154 Y34.318 E.00426
G1 X20.056 Y34.344 E.00378
G1 X19.789 Y34.305 E.01005
G1 X19.107 Y34.022 E.02749
G1 X18.54 Y33.594 E.02646
G1 X18.064 Y32.978 E.029
G1 X17.772 Y32.262 E.02881
G1 X17.683 Y31.557 E.02645
G1 X17.782 Y30.82 E.02769
G1 X18.064 Y30.14 E.02743
G1 X18.516 Y29.549 E.02771
G1 X18.669 Y29.426 E.00731
G1 X18.741 Y29.409 E.00277
G1 E-.35 F2400
;WIPE_START
G1 F3000
G1 X18.872 Y29.469 E-.02156
G1 X18.862 Y29.616 E-.02217
G1 X18.68 Y29.987 E-.06194
G1 X18.602 Y30.272 E-.04433
;WIPE_END
G1 Z.3 F18000
G1 X27.754 Y22.899 Z.3
G1 Z.2
G1 E.5 F2400
G1 F3000
G1 X27.285 Y21.766 E.04567
G1 X27.125 Y20.55 E.04567
G1 X27.285 Y19.334 E.04567
G1 X27.754 Y18.201 E.04567
G1 X28.501 Y17.229 E.04567
G1 X29.474 Y16.482 E.04567
G1 X30.606 Y16.013 E.04567
G1 X31.822 Y15.853 E.04567
G1 X33.038 Y16.013 E.04567
G1 X34.171 Y16.482 E.04567
G1 X35.144 Y17.229 E.04567
G1 X35.89 Y18.201 E.04567
G1 X36.36 Y19.334 E.04567
G1 X36.52 Y20.55 E.04567
G1 X36.36 Y21.766 E.04567
G1 X35.89 Y22.899 E.04567
G1 X35.329 Y23.63 E.03434
G1 X32.161 Y20.461 E.16689
G1 X32.078 Y20.408 E.00368
G1 X31.332 Y20.136 E.02959
G1 X31.228 Y20.124 E.00389
G1 X31.045 Y20.168 E.007
G1 X30.352 Y20.612 E.03067
G1 X27.889 Y23.074 E.12972
G1 X27.779 Y22.931 E.00676
G1 X28.044 Y22.206 F18000
G1 F3000
G1 X27.927 Y22.122 E.00535
G1 X27.728 Y21.629 E.01982
G1 X27.588 Y20.568 E.03985
G1 X27.728 Y19.472 E.04117
G1 X28.147 Y18.449 E.04117
G1 X28.816 Y17.569 E.04117
G1 X29.69 Y16.892 E.04117
G1 X30.709 Y16.465 E.04117
G1 X31.804 Y16.316 E.04117
G1 X32.901 Y16.456 E.04117
G1 X33.924 Y16.874 E.04117
G1 X34.803 Y17.544 E.04117
G1 X35.48 Y18.418 E.04117
G1 X35.907 Y19.437 E.04117
G1 X36.056 Y20.532 E.04117
G1 X35.917 Y21.629 E.04117
G1 X35.498 Y22.652 E.04117
G1 X35.379 Y22.814 E.0075
G1 X35.278 Y22.868 E.00426
G1 X35.173 Y22.828 E.00417
G1 X32.492 Y20.146 E.14125
G1 X32.227 Y19.976 E.01172
G1 X31.499 Y19.711 E.02889
G1 X31.289 Y19.672 E.00793
G1 X31.11 Y19.682 E.0067
G1 X30.95 Y19.72 E.00612
G1 X30.788 Y19.789 E.00655
G1 X30.111 Y20.224 E.02996
G1 X28.151 Y22.166 E.1028
G1 X28.081 Y22.192 E.00277
G1 X28.26 Y21.346 F18000
G1 F3000
G1 X28.161 Y21.29 E.00426
G1 X28.136 Y21.228 E.00249
G1 X28.051 Y20.549 E.02546
G1 X28.181 Y19.572 E.03671
G1 X28.558 Y18.663 E.03666
G1 X29.157 Y17.883 E.03666
G1 X29.939 Y17.284 E.03666
G1 X30.848 Y16.907 E.03666
G1 X31.788 Y16.78 E.03534
G1 X32.765 Y16.899 E.03666
G1 X33.709 Y17.286 E.03798
G1 X34.49 Y17.885 E.03666
G1 X35.089 Y18.667 E.03666
G1 X35.465 Y19.576 E.03666
G1 X35.593 Y20.516 E.03534
G1 X35.473 Y21.493 E.03666
G1 X35.268 Y22.007 E.0206
G1 X35.184 Y22.085 E.00426
G1 X35.044 Y22.052 E.00537
G1 X32.734 Y19.758 E.12124
G1 X32.372 Y19.542 E.01572
G1 X31.664 Y19.284 E.02805
G1 X31.384 Y19.225 E.01067
G1 X31.092 Y19.226 E.01089
G1 X30.762 Y19.304 E.01261
G1 X30.533 Y19.41 E.00939
G1 X29.876 Y19.832 E.02909
G1 X28.368 Y21.308 E.0786
G1 X28.298 Y21.333 E.00277
G1 X28.692 Y20.284 F18000
G1 F3000
G1 X28.593 Y20.228 E.00426
G1 X28.568 Y20.13 E.00377
G1 X28.633 Y19.675 E.01709
G1 X28.968 Y18.88 E.03216
G1 X29.498 Y18.198 E.03216
G1 X30.155 Y17.694 E.03084
G1 X30.986 Y17.35 E.03351
G1 X31.809 Y17.243 E.03092
G1 X32.631 Y17.343 E.03084
G1 X33.494 Y17.697 E.03474
G1 X34.175 Y18.225 E.0321
G1 X34.678 Y18.882 E.03084
G1 X35.022 Y19.714 E.03351
G1 X35.13 Y20.537 E.03092
G1 X35.059 Y21.111 E.02155
G1 X34.999 Y21.209 E.00426
G1 X34.886 Y21.227 E.00426
G1 X34.827 Y21.192 E.00257
G1 X33.062 Y19.44 E.09261
G1 X32.962 Y19.362 E.00472
G1 X32.517 Y19.109 E.01907
G1 X31.828 Y18.858 E.0273
G1 X31.49 Y18.78 E.01292
G1 X31.095 Y18.769 E.01472
G1 X30.979 Y18.783 E.00437
G1 X30.668 Y18.856 E.01189
G1 X30.349 Y18.992 E.01293
G1 X29.547 Y19.514 E.03565
G1 X28.8 Y20.246 E.03893
G1 X28.73 Y20.271 E.00277
G1 E-.35 F2400
;WIPE_START
G1 F3000
G1 X28.593 Y20.228 E-.02156
G1 X28.568 Y20.13 E-.01518
G1 X28.633 Y19.675 E-.06884
G1 X28.748 Y19.402 E-.04443
;WIPE_END
G1 Z.3 F18000
G1 X30.132 Y18.533 Z.3
G1 Z.2
G1 E.5 F2400
G1 F3000
G1 X30.062 Y18.442 E.00426
G1 X30.112 Y18.302 E.00553
G1 X30.371 Y18.104 E.01213
G1 X31.088 Y17.802 E.029
G1 X31.794 Y17.706 E.02652
G1 X32.496 Y17.787 E.02634
G1 X33.246 Y18.089 E.03009
G1 X33.859 Y18.564 E.02889
G1 X34.286 Y19.13 E.02639
G1 X34.57 Y19.816 E.02767
G1 X34.595 Y19.972 E.00587
G1 X34.561 Y20.081 E.00426
G1 X34.456 Y20.127 E.00426
G1 X34.363 Y20.087 E.00378
G1 X33.337 Y19.075 E.05367
G1 X33.182 Y18.962 E.00715
G1 X32.664 Y18.676 E.02206
G1 X31.994 Y18.432 E.02656
G1 X31.491 Y18.323 E.01917
G1 X31.116 Y18.312 E.01395
G1 X30.93 Y18.329 E.00696
G1 X30.572 Y18.409 E.01366
G1 X30.246 Y18.539 E.01307
G1 X30.172 Y18.535 E.00277
G1 E-.35 F2400
;WIPE_START
G1 F3000
G1 X30.062 Y18.442 E-.02156
G1 X30.112 Y18.302 E-.02227
G1 X30.371 Y18.104 E-.04885
G1 X30.723 Y17.956 E-.05733
;WIPE_END
G1 Z.3 F18000
G1 X195.706 Y184.071 Z.3
G1 Z.2
G1 E.5 F2400
G1 F3000
G1 X196.495 Y183.465 E.03705
G1 X197.628 Y182.996 E.04567
G1 X198.844 Y182.836 E.04567
G1 X200.059 Y182.996 E.04567
G1 X201.192 Y183.465 E.04567
G1 X202.165 Y184.212 E.04567
G1 X202.912 Y185.185 E.04567
G1 X203.381 Y186.318 E.04567
G1 X203.541 Y187.533 E.04567
G1 X203.381 Y188.749 E.04567
G1 X202.912 Y189.882 E.04567
G1 X202.165 Y190.855 E.04567
G1 X201.192 Y191.601 E.04567
G1 X200.059 Y192.071 E.04567
G1 X198.844 Y192.231 E.04567
G1 X197.628 Y192.071 E.04567
G1 X196.459 Y191.574 E.04729
G1 X198.853 Y189.181 E.12608
G1 X199.298 Y188.488 E.03067
G1 X199.342 Y188.306 E.007
G1 X199.33 Y188.202 E.00389
G1 X199.058 Y187.455 E.02959
G1 X199.005 Y187.372 E.00368
G1 X195.734 Y184.099 E.17235
G1 X196.468 Y184.12 F18000
G1 F3000
G1 X196.521 Y184.021 E.00417
G1 X196.742 Y183.858 E.01023
G1 X197.765 Y183.439 E.04117
G1 X198.826 Y183.299 E.03985
G1 X199.922 Y183.439 E.04117
G1 X200.976 Y183.876 E.04249
G1 X201.825 Y184.527 E.03985
G1 X202.501 Y185.401 E.04117
G1 X202.938 Y186.455 E.04249
G1 X203.078 Y187.515 E.03985
G1 X202.938 Y188.612 E.04117
G1 X202.501 Y189.666 E.04249
G1 X201.85 Y190.515 E.03985
G1 X200.976 Y191.191 E.04117
G1 X199.922 Y191.628 E.04249
G1 X198.861 Y191.767 E.03985
G1 X197.768 Y191.628 E.04107
G1 X197.449 Y191.498 E.01284
G1 X197.372 Y191.413 E.00426
G1 X197.405 Y191.275 E.00531
G1 X199.242 Y189.422 E.09716
G1 X199.677 Y188.745 E.02996
G1 X199.746 Y188.583 E.00655
G1 X199.783 Y188.428 E.00597
G1 X199.783 Y188.148 E.01042
G1 X199.492 Y187.309 E.03307
G1 X199.323 Y187.043 E.01172
G1 X196.508 Y184.227 E.14832
G1 X196.482 Y184.157 E.00277
G1 X197.229 Y184.234 F18000
G1 F3000
G1 X197.314 Y184.118 E.00537
G1 X197.901 Y183.882 E.02357
G1 X198.844 Y183.763 E.03542
G1 X199.785 Y183.882 E.03534
G1 X200.76 Y184.286 E.03928
G1 X201.51 Y184.867 E.03537
G1 X202.091 Y185.618 E.03534
G1 X202.495 Y186.592 E.03928
G1 X202.614 Y187.534 E.03537
G1 X202.495 Y188.475 E.03534
G1 X202.091 Y189.45 E.03928
G1 X201.509 Y190.2 E.03537
G1 X200.759 Y190.781 E.03534
G1 X199.785 Y191.185 E.03928
G1 X198.878 Y191.304 E.03407
G1 X198.388 Y191.246 E.01839
G1 X198.291 Y191.186 E.00426
G1 X198.273 Y191.073 E.00426
G1 X198.307 Y191.014 E.00251
G1 X199.634 Y189.657 E.07069
G1 X200.056 Y189 E.02909
G1 X200.163 Y188.769 E.00948
G1 X200.224 Y188.545 E.00867
G1 X200.239 Y188.156 E.01448
G1 X200.211 Y187.987 E.0064
G1 X199.928 Y187.172 E.03214
G1 X199.712 Y186.803 E.01591
G1 X197.269 Y184.341 E.12918
G1 X197.243 Y184.272 E.00277
G1 X198.069 Y184.432 F18000
G1 F3000
G1 X198.125 Y184.332 E.00426
G1 X198.189 Y184.306 E.00255
G1 X198.861 Y184.225 E.02523
G1 X199.684 Y184.335 E.03091
G1 X200.511 Y184.678 E.03335
G1 X201.171 Y185.183 E.03093
G1 X201.699 Y185.866 E.03219
G1 X202.042 Y186.693 E.03335
G1 X202.151 Y187.517 E.03093
G1 X202.042 Y188.374 E.03219
G1 X201.699 Y189.201 E.03335
G1 X201.194 Y189.861 E.03093
G1 X200.511 Y190.389 E.03219
G1 X199.682 Y190.733 E.0334
G1 X199.542 Y190.756 E.0053
G1 X199.432 Y190.722 E.00426
G1 X199.387 Y190.617 E.00426
G1 X199.424 Y190.525 E.0037
G1 X200.025 Y189.894 E.03246
G1 X200.474 Y189.185 E.03123
G1 X200.605 Y188.883 E.01228
G1 X200.682 Y188.55 E.01274
G1 X200.696 Y188.185 E.01359
G1 X200.662 Y187.919 E.01
G1 X200.363 Y187.033 E.03483
G1 X200.11 Y186.579 E.01937
G1 X200.03 Y186.475 E.00486
G1 X198.109 Y184.539 E.1016
G1 X198.083 Y184.469 E.00277
G1 X199.149 Y184.87 F18000
G1 F3000
G1 X199.205 Y184.771 E.00426
G1 X199.304 Y184.746 E.00379
G1 X199.547 Y184.778 E.00912
G1 X200.295 Y185.088 E.03018
G1 X200.857 Y185.523 E.02645
G1 X201.307 Y186.114 E.02769
G1 X201.599 Y186.831 E.02881
G1 X201.688 Y187.535 E.02645
G1 X201.589 Y188.272 E.02769
G1 X201.375 Y188.789 E.02084
G1 X201.291 Y188.867 E.00426
G1 X201.178 Y188.854 E.00426
G1 X201.113 Y188.715 E.00573
G1 X201.139 Y188.559 E.00588
G1 X201.152 Y188.213 E.01291
G1 X201.117 Y187.874 E.01267
G1 X200.756 Y186.799 E.04225
G1 X200.513 Y186.363 E.0186
G1 X200.396 Y186.202 E.00741
G1 X199.188 Y184.978 E.06405
G1 X199.163 Y184.908 E.00277
G1 E-.35 F2400
;WIPE_START
G1 F3000
G1 X199.205 Y184.771 E-.02156
G1 X199.304 Y184.746 E-.01528
G1 X199.547 Y184.778 E-.03675
G1 X200.017 Y184.973 E-.07642
;WIPE_END
G1 Z.3 F18000
G1 X192.253 Y195.779 Z.3
G1 Z.2
G1 E.5 F2400
G1 F3000
G1 X192.858 Y196.568 E.03705
G1 X193.328 Y197.701 E.04567
G1 X193.488 Y198.917 E.04567
G1 X193.328 Y200.133 E.04567
G1 X192.858 Y201.266 E.04567
G1 X192.112 Y202.238 E.04567
G1 X191.139 Y202.985 E.04567
G1 X190.006 Y203.454 E.04567
G1 X188.79 Y203.614 E.04567
G1 X187.575 Y203.454 E.04567
G1 X186.442 Y202.985 E.04567
G1 X185.469 Y202.238 E.04567
G1 X184.722 Y201.266 E.04567
G1 X184.253 Y200.133 E.04567
G1 X184.093 Y198.917 E.04567
G1 X184.253 Y197.701 E.04567
G1 X184.722 Y196.568 E.04567
G1 X184.907 Y196.327 E.01131
G1 X187.741 Y199.162 E.1493
G1 X187.827 Y199.217 E.00379
G1 X188.01 Y199.257 E.00698
G1 X188.756 Y199.173 E.02797
G1 X188.889 Y199.123 E.00529
G1 X188.952 Y199.079 E.00285
G1 X192.224 Y195.807 E.17235
G1 X192.204 Y196.541 F18000
G1 F3000
G1 X192.302 Y196.595 E.00417
G1 X192.466 Y196.815 E.01023
G1 X192.885 Y197.838 E.04117
G1 X193.024 Y198.899 E.03985
G1 X192.885 Y199.995 E.04117
G1 X192.448 Y201.049 E.04249
G1 X191.797 Y201.898 E.03985
G1 X190.923 Y202.575 E.04117
G1 X189.869 Y203.011 E.04249
G1 X188.808 Y203.151 E.03985
G1 X187.712 Y203.011 E.04117
G1 X186.658 Y202.575 E.04249
G1 X185.809 Y201.923 E.03985
G1 X185.132 Y201.049 E.04117
G1 X184.705 Y200.03 E.04117
G1 X184.556 Y198.935 E.04117
G1 X184.696 Y197.838 E.04117
G1 X184.929 Y197.264 E.02309
G1 X185.013 Y197.186 E.00426
G1 X185.152 Y197.219 E.00535
G1 X187.41 Y199.478 E.11893
G1 X187.578 Y199.599 E.00771
G1 X187.741 Y199.666 E.00656
G1 X187.901 Y199.701 E.00611
G1 X188.072 Y199.71 E.00638
