;FLAVOR:Marlin
;TIME:1014
;Filament used: 0.397044m
;Layer height: 0.32
;MINX:104.335
;MINY:97.755
;MINZ:0.32
;MAXX:115.355
;MAXY:123.155
;MAXZ:27.84
;Generated with Cura_SteamEngine 4.2.1
M140 S60
M105
M190 S60
M104 S210
M105
M109 S210
M82 ;absolute extrusion mode
M201 X500.00 Y500.00 Z100.00 E5000.00 ;Setup machine max acceleration
M203 X500.00 Y500.00 Z10.00 E50.00 ;Setup machine max feedrate
M204 P500.00 R1000.00 T500.00 ;Setup Print/Retract/Travel acceleration
M205 X8.00 Y8.00 Z0.40 E5.00 ;Setup Jerk
M220 S100 ;Reset Feedrate
M221 S100 ;Reset Flowrate

G28 ;Home

G92 E0 ;Reset Extruder
G1 Z2.0 F3000 ;Move Z Axis up
G1 X10.1 Y20 Z0.28 F5000.0 ;Move to start position
G1 X10.1 Y200.0 Z0.28 F1500.0 E15 ;Draw the first line
G1 X10.4 Y200.0 Z0.28 F5000.0 ;Move to side a little
G1 X10.4 Y20 Z0.28 F1500.0 E30 ;Draw the second line
G92 E0 ;Reset Extruder
G1 Z2.0 F3000 ;Move Z Axis up

M141 S28
G92 E0
G92 E0
G1 F2700 E-5
;LAYER_COUNT:87
;LAYER:0
M107
;MESH:parasol4picam.stl
G0 F6000 X105.78 Y122.28 Z0.32
;TYPE:WALL-OUTER
G1 F2700 E0
G1 F723.9 X105.22 Y122.28 E0.03278
G1 X105.22 Y111.738 E0.64989
G1 X113.832 Y111.72 E1.15402
G1 X113.99 Y111.72 E1.16327
G1 X114.051 Y111.72 E1.16684
G1 X114.11 Y111.719 E1.17029
G1 X114.051 Y111.383 E1.18385
G1 X114.041 Y111.323 E1.18709
G1 X111.703 Y98.069 E1.97493
G1 X111.665 Y97.853 E1.98776
G1 X111.881 Y97.815 E1.99606
G1 X112.217 Y97.756 E2.01603
G1 X114.745 Y112.093 E2.86823
G1 X114.184 Y112.192 E2.90158
G1 X114.18 Y112.174 E2.90266
G1 X114.164 Y112.117 E2.90613
G1 X113.947 Y112.145 E2.91893
G1 X113.78 Y112.167 E2.92879
G1 X113.78 Y112.192 E2.93
G1 X113.78 Y112.28 E2.93479
G1 X105.78 Y112.28 E3.40309
G1 X105.78 Y122.28 E3.98847
G0 F6000 X105.499 Y121.989
M104 S200
;TYPE:SKIN
G1 F723.9 X105.499 Y121.678 E3.99571
G1 X105.499 Y112.033 E4.22026
G1 X108.582 Y112.004 E4.29204
G1 X113.244 Y112 E4.40058
G1 X114.382 Y111.893 E4.42719
G1 X114.166 Y110.433 E4.46155
G1 X112.702 Y102.123 E4.658
G1 X112.035 Y98.345 E4.74732
G0 F6000 X112.08 Y98.079
G1 F723.9 X111.99 Y97.989 E4.75105
G1 F2700 E-0.24895
;MESH:NONMESH
G0 F600 X111.99 Y97.989 Z0.64
G0 F6000 X110.826 Y98.193
G0 X104.347 Y110.866
G0 X104.336 Y122.494
G0 X104.436 Y123.155
G0 X106.653 Y123.153
G0 X106.665 Y122.28
G0 X105.78 Y122.28
;TIME_ELAPSED:14.062448
;LAYER:1
M140 S50
M106 S127.5
;TYPE:WALL-OUTER
;MESH:parasol4picam.stl
G1 F2700 E4.75105
G1 F635.4 X105.22 Y122.28 E4.78383
G1 X105.22 Y111.72 E5.40199
G1 X113.85 Y111.72 E5.90717
G1 X113.851 Y111.72 E5.90723
G1 X114.11 Y111.72 E5.92239
G1 X114.065 Y111.464 E5.93177
G1 X114.023 Y111.225 E5.94598
G1 X111.665 Y97.853 E6.74082
G1 X112.015 Y97.791 E6.76163
G1 X112.214 Y97.756 E6.77346
G1 X112.223 Y97.791 E6.77557
G1 X112.258 Y97.989 E6.78734
G1 X114.707 Y111.877 E7.61286
G1 X114.745 Y112.093 E7.6257
G1 X114.529 Y112.131 E7.63399
G1 X114.17 Y112.194 E7.65533
G1 X114.145 Y112.132 E7.65924
G1 X114.136 Y112.11 E7.66064
G1 X113.881 Y112.159 E7.67584
G1 X113.78 Y112.179 E7.68186
G1 X113.78 Y112.194 E7.68242
G1 X113.78 Y112.28 E7.68701
G1 X105.78 Y112.28 E8.15531
G1 X105.78 Y122.28 E8.74069
G0 F7500 X105.499 Y121.934
;TYPE:SKIN
G1 F635.4 X105.499 Y121.622 E8.74801
G1 X105.499 Y112.289 E8.96687
G1 X105.788 Y111.999 E8.97647
G1 X113.566 Y111.999 E9.15886
G1 X114.405 Y111.783 E9.17918
G1 X113.192 Y104.907 E9.34291
G1 X112.026 Y98.294 E9.50037
G1 X111.966 Y98.044 E9.5064
G1 F2700 E4.5064
G0 F7500 X110.826 Y98.192
G0 X105.567 Y110.835
G0 X105.567 Y111.91
G1 F2700 E9.5064
G1 F635.4 X105.41 Y112.067 E9.5129
G1 F2700 E4.5129
;MESH:NONMESH
G0 F600 X105.41 Y112.067 Z0.96
G0 F7500 X104.335 Y112.067
G0 X104.336 Y122.387
G0 X104.437 Y123.154
G0 X106.653 Y123.153
G0 X106.665 Y122.28
G0 X105.78 Y122.28
;TIME_ELAPSED:25.522608
;LAYER:2
M106 S255
;TYPE:WALL-OUTER
;MESH:parasol4picam.stl
G1 F2700 E9.5129
G1 F610.9 X105.22 Y122.28 E9.54568
G1 X105.22 Y111.72 E10.16384
G1 X113.715 Y111.72 E10.66112
G1 X113.78 Y111.72 E10.66492
G1 X114.11 Y111.72 E10.68424
G1 X114.099 Y111.656 E10.68768
G1 X111.703 Y98.069 E11.4953
G1 X111.665 Y97.853 E11.50814
G1 X111.881 Y97.815 E11.51643
G1 X112.216 Y97.756 E11.53635
G1 X112.252 Y97.96 E11.54847
G1 X114.707 Y111.877 E12.37572
G1 X114.745 Y112.093 E12.38856
G1 X114.529 Y112.131 E12.39686
G1 X114.193 Y112.19 E12.41683
G1 X114.181 Y112.123 E12.42081
G1 X114.148 Y112.126 E12.42275
G1 X113.78 Y112.159 E12.44359
G1 X113.78 Y112.19 E12.44519
G1 X113.78 Y112.28 E12.45019
G1 X105.78 Y112.28 E12.91849
G1 X105.78 Y122.28 E13.50387
G0 F9000 X105.499 Y121.989
;TYPE:SKIN
G1 F610.9 X105.499 Y121.678 E13.51119
G1 X105.499 Y112.033 E13.73817
G1 X107.643 Y111.999 E13.78864
G1 X113.243 Y111.999 E13.92043
G1 X114.382 Y111.893 E13.94735
G1 X114.166 Y110.433 E13.98208
G1 X112.767 Y102.5 E14.17166
G1 X112.035 Y98.345 E14.27095
G0 F9000 X112.079 Y98.079
G1 F610.9 X111.99 Y97.989 E14.27465
G1 F2700 E9.27465
;MESH:NONMESH
G0 F600 X111.99 Y97.989 Z1.28
G0 F9000 X110.826 Y98.193
G0 X104.347 Y110.847
G0 X104.347 Y123.153
G0 X106.653 Y123.153
G0 X106.665 Y122.28
G0 X105.78 Y122.28
;TIME_ELAPSED:36.893412
;LAYER:3
;TYPE:WALL-OUTER
;MESH:parasol4picam.stl
G1 F2700 E14.27465
G1 F631.9 X105.22 Y122.28 E14.30743
G1 X105.22 Y111.72 E14.92559
G1 X113.715 Y111.72 E15.42287
G1 X113.78 Y111.72 E15.42668
G1 X114.11 Y111.72 E15.446
G1 X114.099 Y111.656 E15.44943
G1 X111.703 Y98.069 E16.25706
G1 X111.665 Y97.853 E16.26989
G1 X111.881 Y97.815 E16.27819
G1 X112.216 Y97.756 E16.2981
G1 X112.282 Y98.129 E16.32027
G1 X114.707 Y111.877 E17.13748
G1 X114.745 Y112.093 E17.15031
G1 X114.529 Y112.131 E17.15861
G1 X114.194 Y112.19 E17.17852
G1 X114.183 Y112.124 E17.18244
G1 X114.146 Y112.127 E17.18461
G1 X113.78 Y112.158 E17.20533
G1 X113.78 Y112.19 E17.207
G1 X113.78 Y112.28 E17.21201
G1 X105.78 Y112.28 E17.68031
G1 X105.78 Y122.28 E18.26569
G0 F9000 X105.499 Y121.934
;TYPE:SKIN
G1 F631.9 X105.499 Y121.622 E18.27297
G1 X105.499 Y112.289 E18.49082
G1 X105.788 Y111.999 E18.50037
G1 X113.255 Y111.999 E18.67466
G1 X113.532 Y112.033 E18.68118
G1 X114.404 Y111.784 E18.70234
G1 X113.192 Y104.907 E18.86533
G1 X112.026 Y98.294 E19.02207
G1 X111.965 Y98.045 E19.02805
G1 F2700 E14.02805
G0 F9000 X110.826 Y98.194
G0 X105.567 Y110.835
G0 X105.567 Y111.91
G1 F2700 E19.02805
G1 F631.9 X105.41 Y112.067 E19.03455
G1 F2700 E14.03455
;MESH:NONMESH
G0 F600 X105.41 Y112.067 Z1.6
G0 F9000 X104.335 Y112.067
G0 X104.347 Y123.153
G0 X106.653 Y123.153
G0 X106.665 Y122.28
G0 X105.78 Y122.28
;TIME_ELAPSED:48.413248
;LAYER:4
;TYPE:WALL-OUTER
;MESH:parasol4picam.stl
G1 F2700 E19.03455
G1 F611 X105.22 Y122.28 E19.06733
G1 X105.22 Y111.72 E19.68549
G1 X113.715 Y111.72 E20.18277
G1 X113.78 Y111.72 E20.18658
G1 X114.11 Y111.72 E20.20589
G1 X114.099 Y111.656 E20.20933
G1 X113.94 Y110.751 E20.26312
G1 X111.665 Y97.853 E21.02979
G1 X112 Y97.793 E21.04971
G1 X112.216 Y97.755 E21.06255
G1 X112.254 Y97.971 E21.07085
G1 X114.745 Y112.093 E21.91028
G1 X114.194 Y112.191 E21.94304
G1 X114.182 Y112.123 E21.94708
G1 X114.147 Y112.126 E21.94914
G1 X113.78 Y112.158 E21.96989
G1 X113.78 Y112.191 E21.97161
G1 X113.78 Y112.28 E21.97656
G1 X105.78 Y112.28 E22.44486
G1 X105.78 Y122.28 E23.03024
G0 F9000 X105.499 Y121.989
;TYPE:SKIN
G1 F611 X105.499 Y121.678 E23.03756
G1 X105.499 Y112.033 E23.2645
G1 X107.643 Y111.999 E23.31495
G1 X113.243 Y111.999 E23.44671
G1 X114.382 Y111.893 E23.47362
G1 X114.167 Y110.434 E23.50832
G1 X112.701 Y102.123 E23.70689
G1 X112.035 Y98.345 E23.79715
G0 F9000 X112.079 Y98.079
G1 F611 X111.989 Y97.988 E23.8009
G1 F2700 E18.8009
;MESH:NONMESH
G0 F600 X111.989 Y97.988 Z1.92
G0 F9000 X110.827 Y98.192
G0 X104.347 Y110.847
G0 X104.347 Y123.153
G0 X106.653 Y123.153
G0 X106.665 Y122.28
G0 X105.78 Y122.28
;TIME_ELAPSED:59.784025
;LAYER:5
;TYPE:WALL-OUTER
;MESH:parasol4picam.stl
G1 F2700 E23.8009
G1 F632 X105.22 Y122.28 E23.83368
G1 X105.22 Y111.72 E24.45184
G1 X113.715 Y111.72 E24.94912
G1 X113.78 Y111.72 E24.95292
G1 X114.11 Y111.72 E24.97224
G1 X114.099 Y111.656 E24.97568
G1 X111.665 Y97.853 E25.79614
G1 X112 Y97.793 E25.81606
G1 X112.216 Y97.755 E25.8289
G1 X112.254 Y97.971 E25.8372
G1 X114.745 Y112.093 E26.67663
G1 X114.194 Y112.191 E26.70939
G1 X114.182 Y112.123 E26.71343
G1 X114.147 Y112.126 E26.71549
G1 X113.78 Y112.158 E26.73624
G1 X113.78 Y112.191 E26.73796
G1 X113.78 Y112.28 E26.74291
G1 X105.78 Y112.28 E27.21121
G1 X105.78 Y122.28 E27.79659
G0 F9000 X105.499 Y121.934
;TYPE:SKIN
G1 F632 X105.499 Y121.622 E27.80388
G1 X105.499 Y112.289 E28.02177
G1 X105.788 Y111.999 E28.03133
G1 X113.255 Y111.999 E28.20566
G1 X113.532 Y112.033 E28.21218
G1 X114.405 Y111.783 E28.23338
G1 X113.192 Y104.907 E28.39639
G1 X112.026 Y98.294 E28.55317
G1 X111.966 Y98.044 E28.55917
G1 F2700 E23.55917
G0 F9000 X110.827 Y98.192
G0 X105.567 Y110.835
G0 X105.567 Y111.91
G1 F2700 E28.55917
G1 F632 X105.41 Y112.067 E28.56567
G1 F2700 E23.56567
;MESH:NONMESH
G0 F600 X105.41 Y112.067 Z2.24
G0 F9000 X104.335 Y112.067
G0 X104.347 Y123.153
G0 X106.653 Y123.153
G0 X106.665 Y122.28
G0 X105.78 Y122.28
;TIME_ELAPSED:71.303840
;LAYER:6
;TYPE:WALL-OUTER
;MESH:parasol4picam.stl
G1 F2700 E28.56567
G1 F611 X105.22 Y122.28 E28.59845
G1 X105.22 Y111.72 E29.21661
G1 X113.715 Y111.72 E29.71389
G1 X113.78 Y111.72 E29.7177
G1 X114.11 Y111.72 E29.73701
G1 X114.099 Y111.656 E29.74045
G1 X111.665 Y97.853 E30.56091
G1 X112 Y97.793 E30.58083
G1 X112.216 Y97.755 E30.59367
G1 X112.254 Y97.971 E30.60197
G1 X112.372 Y98.635 E30.64145
G1 X114.745 Y112.093 E31.4414
G1 X114.194 Y112.191 E31.47416
G1 X114.182 Y112.123 E31.4782
G1 X114.147 Y112.126 E31.48026
G1 X113.78 Y112.158 E31.50101
G1 X113.78 Y112.191 E31.50273
G1 X113.78 Y112.28 E31.50768
G1 X105.78 Y112.28 E31.97598
G1 X105.78 Y122.28 E32.56136
G0 F9000 X105.499 Y121.989
;TYPE:SKIN
G1 F611 X105.499 Y121.678 E32.56868
G1 X105.499 Y112.033 E32.79578
G1 X107.643 Y111.999 E32.84626
G1 X113.243 Y111.999 E32.97811
G1 X114.382 Y111.893 E33.00505
G1 X114.167 Y110.433 E33.03979
G1 X112.701 Y102.123 E33.23847
G1 X112.035 Y98.345 E33.3288
G0 F9000 X112.079 Y98.079
G1 F611 X111.989 Y97.988 E33.33254
G1 F2700 E28.33254
;MESH:NONMESH
G0 F600 X111.989 Y97.988 Z2.56
G0 F9000 X110.827 Y98.192
G0 X104.347 Y110.847
G0 X104.347 Y123.153
G0 X106.653 Y123.153
G0 X106.665 Y122.28
G0 X105.78 Y122.28
;TIME_ELAPSED:82.674616
;LAYER:7
;TYPE:WALL-OUTER
;MESH:parasol4picam.stl
G1 F2700 E33.33254
G1 F632 X105.22 Y122.28 E33.36533
G1 X105.22 Y111.72 E33.98349
G1 X113.715 Y111.72 E34.48076
G1 X113.78 Y111.72 E34.48457
G1 X114.11 Y111.72 E34.50389
G1 X114.099 Y111.656 E34.50732
G1 X111.665 Y97.853 E35.32778
G1 X112 Y97.793 E35.34771
G1 X112.216 Y97.755 E35.36055
G1 X112.254 Y97.971 E35.36884
G1 X114.745 Y112.093 E36.20827
G1 X114.194 Y112.191 E36.24103
G1 X114.182 Y112.123 E36.24508
G1 X114.147 Y112.126 E36.24713
G1 X113.78 Y112.158 E36.26789
G1 X113.78 Y112.191 E36.26961
G1 X113.78 Y112.28 E36.27455
G1 X105.78 Y112.28 E36.74286
G1 X105.78 Y122.28 E37.32824
G0 F9000 X105.499 Y121.934
;TYPE:SKIN
G1 F632 X105.499 Y121.622 E37.33552
G1 X105.499 Y112.289 E37.55342
G1 X105.788 Y111.999 E37.56298
G1 X113.255 Y111.999 E37.73731
G1 X113.532 Y112.033 E37.74382
G1 X114.405 Y111.783 E37.76503
G1 X113.192 Y104.907 E37.92804
G1 X112.026 Y98.294 E38.08481
G1 X111.966 Y98.044 E38.09082
G1 F2700 E33.09082
G0 F9000 X110.827 Y98.192
G0 X105.567 Y110.835
G0 X105.567 Y111.91
G1 F2700 E38.09082
G1 F632 X105.41 Y112.067 E38.09732
G1 F2700 E33.09732
;MESH:NONMESH
G0 F600 X105.41 Y112.067 Z2.88
G0 F9000 X104.335 Y112.067
G0 X104.347 Y123.153
G0 X106.653 Y123.153
G0 X106.665 Y122.28
G0 X105.78 Y122.28
;TIME_ELAPSED:94.194431
;LAYER:8
;TYPE:WALL-OUTER
;MESH:parasol4picam.stl
G1 F2700 E38.09732
G1 F611 X105.22 Y122.28 E38.1301
G1 X105.22 Y111.72 E38.74826
G1 X113.715 Y111.72 E39.24554
G1 X113.78 Y111.72 E39.24934
G1 X114.11 Y111.72 E39.26866
G1 X114.099 Y111.656 E39.27209
G1 X111.665 Y97.853 E40.09256
G1 X112 Y97.793 E40.11248
G1 X112.216 Y97.755 E40.12532
G1 X112.254 Y97.971 E40.13361
G1 X114.745 Y112.093 E40.97305
G1 X114.194 Y112.191 E41.00581
G1 X114.182 Y112.123 E41.00985
G1 X114.147 Y112.126 E41.0119
G1 X113.78 Y112.158 E41.03266
G1 X113.78 Y112.191 E41.03438
G1 X113.78 Y112.28 E41.03933
G1 X105.78 Y112.28 E41.50763
G1 X105.78 Y122.28 E42.09301
G0 F9000 X105.499 Y121.989
;TYPE:SKIN
G1 F611 X105.499 Y121.678 E42.10033
G1 X105.499 Y112.033 E42.3275
G1 X107.643 Y111.999 E42.378
G1 X113.243 Y111.999 E42.5099
G1 X114.382 Y111.893 E42.53684
G1 X114.167 Y110.433 E42.5716
G1 X112.701 Y102.123 E42.77035
G1 X112.035 Y98.345 E42.86071
G0 F9000 X112.079 Y98.079
G1 F611 X111.989 Y97.988 E42.86445
G1 F2700 E37.86445
;MESH:NONMESH
G0 F600 X111.989 Y97.988 Z3.2
G0 F9000 X110.827 Y98.192
G0 X104.347 Y110.847
G0 X104.347 Y123.153
G0 X106.653 Y123.153
G0 X106.665 Y122.28
G0 X105.78 Y122.28
;TIME_ELAPSED:105.565207
;LAYER:9
;TYPE:WALL-OUTER
;MESH:parasol4picam.stl
G1 F2700 E42.86445
G1 F632 X105.22 Y122.28 E42.89723
G1 X105.22 Y111.72 E43.51539
G1 X113.715 Y111.72 E44.01267
G1 X113.78 Y111.72 E44.01648
G1 X114.11 Y111.72 E44.03579
G1 X114.099 Y111.656 E44.03923
G1 X111.665 Y97.853 E44.85969
G1 X112 Y97.793 E44.87961
G1 X112.216 Y97.755 E44.89245
G1 X112.254 Y97.971 E44.90075
G1 X114.745 Y112.093 E45.74018
G1 X114.194 Y112.191 E45.77294
G1 X114.182 Y112.123 E45.77698
G1 X114.147 Y112.126 E45.77904
G1 X113.78 Y112.158 E45.79979
G1 X113.78 Y112.191 E45.80151
G1 X113.78 Y112.28 E45.80646
G1 X105.78 Y112.28 E46.27476
G1 X105.78 Y122.28 E46.86014
G0 F9000 X105.499 Y121.934
;TYPE:SKIN
G1 F632 X105.499 Y121.622 E46.86743
G1 X105.499 Y112.289 E47.08533
G1 X105.788 Y111.999 E47.09488
G1 X113.255 Y111.999 E47.26922
G1 X113.532 Y112.033 E47.27573
G1 X114.405 Y111.783 E47.29693
G1 X113.192 Y104.907 E47.45995
G1 X112.026 Y98.294 E47.61672
G1 X111.966 Y98.044 E47.62272
G1 F2700 E42.62272
G0 F9000 X110.827 Y98.192
G0 X105.567 Y110.835
G0 X105.567 Y111.91
G1 F2700 E47.62272
G1 F632 X105.41 Y112.067 E47.62922
G1 F2700 E42.62922
;MESH:NONMESH
G0 F600 X105.41 Y112.067 Z3.52
G0 F9000 X104.335 Y112.067
G0 X104.347 Y123.153
G0 X106.653 Y123.153
G0 X106.665 Y122.28
G0 X105.78 Y122.28
;TIME_ELAPSED:117.085022
;LAYER:10
;TYPE:WALL-OUTER
;MESH:parasol4picam.stl
G1 F2700 E47.62922
G1 F611 X105.22 Y122.28 E47.662
G1 X105.22 Y111.72 E48.28016
G1 X113.715 Y111.72 E48.77744
G1 X113.78 Y111.72 E48.78125
G1 X114.11 Y111.72 E48.80057
G1 X114.099 Y111.656 E48.804
G1 X111.665 Y97.853 E49.62446
G1 X112 Y97.793 E49.64439
G1 X112.216 Y97.755 E49.65722
G1 X112.254 Y97.971 E49.66552
G1 X114.745 Y112.093 E50.50495
G1 X114.194 Y112.191 E50.53771
G1 X114.182 Y112.123 E50.54176
G1 X114.147 Y112.126 E50.54381
G1 X113.78 Y112.158 E50.56456
G1 X113.78 Y112.191 E50.56628
G1 X113.78 Y112.28 E50.57123
G1 X105.78 Y112.28 E51.03954
G1 X105.78 Y122.28 E51.62491
G0 F9000 X105.499 Y121.989
;TYPE:SKIN
G1 F611 X105.499 Y121.678 E51.63224
G1 X105.499 Y112.033 E51.85941
G1 X107.643 Y111.999 E51.90991
G1 X113.243 Y111.999 E52.04181
G1 X114.382 Y111.893 E52.06875
G1 X114.167 Y110.433 E52.10351
G1 X112.701 Y102.123 E52.30226
G1 X112.035 Y98.345 E52.39261
G0 F9000 X112.079 Y98.079
G1 F611 X111.989 Y97.988 E52.39636
G1 F2700 E47.39636
;MESH:NONMESH
G0 F600 X111.989 Y97.988 Z3.84
G0 F9000 X110.827 Y98.192
G0 X104.347 Y110.847
G0 X104.347 Y123.153
G0 X106.653 Y123.153
G0 X106.665 Y122.28
G0 X105.78 Y122.28
;TIME_ELAPSED:128.455798
;LAYER:11
;TYPE:WALL-OUTER
;MESH:parasol4picam.stl
G1 F2700 E52.39636
G1 F632 X105.22 Y122.28 E52.42914
G1 X105.22 Y111.72 E53.0473
G1 X113.715 Y111.72 E53.54458
G1 X113.78 Y111.72 E53.54838
G1 X114.11 Y111.72 E53.5677
G1 X114.099 Y111.656 E53.57114
G1 X111.665 Y97.853 E54.3916
G1 X112 Y97.793 E54.41152
G1 X112.216 Y97.755 E54.42436
G1 X112.254 Y97.971 E54.43266
G1 X114.745 Y112.093 E55.27209
G1 X114.194 Y112.191 E55.30485
G1 X114.182 Y112.123 E55.30889
G1 X114.147 Y112.126 E55.31095
G1 X113.78 Y112.158 E55.3317
G1 X113.78 Y112.191 E55.33342
G1 X113.78 Y112.28 E55.33837
G1 X105.78 Y112.28 E55.80667
G1 X105.78 Y122.28 E56.39205
G0 F9000 X105.499 Y121.934
;TYPE:SKIN
G1 F632 X105.499 Y121.622 E56.39933
G1 X105.499 Y112.289 E56.61723
G1 X105.788 Y111.999 E56.62679
G1 X113.255 Y111.999 E56.80112
G1 X113.532 Y112.033 E56.80764
G1 X114.405 Y111.783 E56.82884
