;FLAVOR:Marlin
;TIME:4753
;Filament used: 4.15054m
;Layer height: 0.2
;MINX:85.7
;MINY:59.299
;MINZ:0.2
;MAXX:149.3
;MAXY:175.701
;MAXZ:17.8
;Generated with Cura_SteamEngine 4.1.0
M140 S60
M105
M190 S60
M104 S210
M105
M109 S210
M82 ;absolute extrusion mode
; Ender 3 Custom Start G-code
G28 ; Home all axes
G92 E0 ; Reset Extruder
G1 Z2.0 F3000 ; Move Z Axis up little to prevent scratching of Heat Bed
G1 X0.1 Y20 Z0.3 F5000.0 ; Move to start position
G1 X0.1 Y200.0 Z0.3 F1500.0 E15 ; Draw the first line
G1 X0.4 Y200.0 Z0.3 F5000.0 ; Move to side a little
G1 X0.4 Y20 Z0.3 F1500.0 E30 ; Draw the second line
G92 E0 ; Reset Extruder
G1 Z2.0 F3000 ; Move Z Axis up little to prevent scratching of Heat Bed
; End of custom start GCode
G92 E0
G92 E0
G1 F2400 E-5
;LAYER_COUNT:89
;LAYER:0
M107
M204 S500
M205 X10 Y10
;MESH:LM2596_wLateralDisplay.stl
G0 F3600 X104.4 Y175.001 Z0.2
;TYPE:WALL-INNER
G1 F2400 E0
G1 F1800 X128.6 Y175.001 E0.8049
G1 X128.6 Y158.801 E1.34371
G1 X104.4 Y158.801 E2.1486
G1 X104.4 Y175.001 E2.68742
G0 F3600 X104.33 Y175.071
G0 X128.6 Y175.201
G0 X128.6 Y175.301
G1 F1800 X104.4 Y175.301 E3.29109
G1 X86.1 Y175.301 E3.89975
G1 X86.1 Y135.501 E5.2235
G1 X148.9 Y135.501 E7.31224
G1 X148.9 Y175.301 E8.63599
G1 X128.6 Y175.301 E9.31117
G0 F3600 X128.6 Y175.201
G0 X104.372 Y175.029
G0 X104.8 Y174.601
;TYPE:WALL-OUTER
G1 F1800 X128.2 Y174.601 E10.08946
G1 X128.2 Y159.201 E10.60167
G1 X104.8 Y159.201 E11.37996
G1 X104.8 Y174.601 E11.89216
G0 F3600 X105 Y174.601
G0 X105 Y175.101
G0 X86.17 Y175.231
G0 X85.7 Y175.701
G1 F1800 X85.7 Y135.101 E13.24252
G1 X149.3 Y135.101 E15.35787
G1 X149.3 Y175.701 E16.70823
G1 X85.7 Y175.701 E18.82357
G0 F3600 X85.7 Y175.501
G0 X86.49 Y174.911
;TYPE:SKIN
G1 F1800 X86.49 Y135.891 E20.12138
G1 X148.51 Y135.891 E22.18418
G1 X148.51 Y174.911 E23.48199
G1 X128.99 Y174.911 E24.13123
G1 X128.99 Y158.411 E24.68002
G1 X104.01 Y158.411 E25.51086
G1 X104.01 Y174.911 E26.05965
G1 X86.49 Y174.911 E26.64237
G0 F3600 X87.049 Y174.73
G1 F1800 X86.67 Y174.351 E26.66019
G0 F3600 X86.67 Y173.785
G1 F1800 X87.614 Y174.73 E26.70462
G0 F3600 X88.18 Y174.73
G1 F1800 X86.67 Y173.219 E26.77567
G0 F3600 X86.67 Y172.654
G1 F1800 X88.746 Y174.73 E26.87332
G0 F3600 X89.311 Y174.73
G1 F1800 X86.67 Y172.088 E26.99757
G0 F3600 X86.67 Y171.522
G1 F1800 X89.877 Y174.73 E27.14844
G0 F3600 X90.443 Y174.73
G1 F1800 X86.67 Y170.957 E27.32591
G0 F3600 X86.67 Y170.391
G1 F1800 X91.008 Y174.73 E27.52998
G0 F3600 X91.574 Y174.73
G1 F1800 X86.67 Y169.825 E27.76067
G0 F3600 X86.67 Y169.26
G1 F1800 X92.14 Y174.73 E28.01796
G0 F3600 X92.705 Y174.73
G1 F1800 X86.67 Y168.694 E28.30185
G0 F3600 X86.67 Y168.128
G1 F1800 X93.271 Y174.73 E28.61237
G0 F3600 X93.837 Y174.73
G1 F1800 X86.67 Y167.563 E28.94948
G0 F3600 X86.67 Y166.997
G1 F1800 X94.402 Y174.73 E29.31319
G0 F3600 X94.968 Y174.73
G1 F1800 X86.67 Y166.431 E29.70353
G0 F3600 X86.67 Y165.866
G1 F1800 X95.534 Y174.73 E30.12047
G0 F3600 X96.1 Y174.73
G1 F1800 X86.67 Y165.3 E30.56402
G0 F3600 X86.67 Y164.734
G1 F1800 X96.665 Y174.73 E31.03418
G0 F3600 X97.231 Y174.73
G1 F1800 X86.67 Y164.168 E31.53096
G0 F3600 X86.67 Y163.603
G1 F1800 X97.797 Y174.73 E32.05434
G0 F3600 X98.362 Y174.73
G1 F1800 X86.67 Y163.037 E32.60432
G0 F3600 X86.67 Y162.471
G1 F1800 X98.928 Y174.73 E33.18092
G0 F3600 X99.494 Y174.73
G1 F1800 X86.67 Y161.906 E33.78412
G0 F3600 X86.67 Y161.34
G1 F1800 X100.059 Y174.73 E34.41393
G0 F3600 X100.625 Y174.73
G1 F1800 X86.67 Y160.774 E35.07035
G0 F3600 X86.67 Y160.209
G1 F1800 X101.191 Y174.73 E35.75337
G0 F3600 X101.756 Y174.73
G1 F1800 X86.67 Y159.643 E36.463
G0 F3600 X86.67 Y159.077
G1 F1800 X102.322 Y174.73 E37.19924
G0 F3600 X102.888 Y174.73
G1 F1800 X86.67 Y158.512 E37.96209
G0 F3600 X86.67 Y157.946
G1 F1800 X103.453 Y174.73 E38.75153
G0 F3600 X103.83 Y174.54
G1 F1800 X86.67 Y157.38 E39.55868
G0 F3600 X86.67 Y156.815
G1 F1800 X103.83 Y173.975 E40.36584
G0 F3600 X103.83 Y173.409
G1 F1800 X86.67 Y156.249 E41.17299
G0 F3600 X86.67 Y155.683
G1 F1800 X103.83 Y172.843 E41.98015
G0 F3600 X103.83 Y172.278
G1 F1800 X86.67 Y155.118 E42.7873
G0 F3600 X86.67 Y154.552
G1 F1800 X103.83 Y171.712 E43.59445
G0 F3600 X103.83 Y171.146
G1 F1800 X86.67 Y153.986 E44.40161
G0 F3600 X86.67 Y153.42
G1 F1800 X103.83 Y170.581 E45.20878
G0 F3600 X103.83 Y170.015
G1 F1800 X86.67 Y152.855 E46.01594
G0 F3600 X86.67 Y152.289
G1 F1800 X103.83 Y169.449 E46.82309
G0 F3600 X103.83 Y168.883
G1 F1800 X86.67 Y151.723 E47.63025
G0 F3600 X86.67 Y151.158
G1 F1800 X103.83 Y168.318 E48.4374
G0 F3600 X103.83 Y167.752
G1 F1800 X86.67 Y150.592 E49.24455
G0 F3600 X86.67 Y150.026
G1 F1800 X103.83 Y167.186 E50.05171
G0 F3600 X103.83 Y166.621
G1 F1800 X86.67 Y149.461 E50.85886
G0 F3600 X86.67 Y148.895
G1 F1800 X103.83 Y166.055 E51.66601
G0 F3600 X103.83 Y165.489
G1 F1800 X86.67 Y148.329 E52.47317
G0 F3600 X86.67 Y147.764
G1 F1800 X103.83 Y164.924 E53.28032
G0 F3600 X103.83 Y164.358
G1 F1800 X86.67 Y147.198 E54.08748
G0 F3600 X86.67 Y146.632
G1 F1800 X103.83 Y163.792 E54.89463
G0 F3600 X103.83 Y163.227
G1 F1800 X86.67 Y146.067 E55.70178
G0 F3600 X86.67 Y145.501
G1 F1800 X103.83 Y162.661 E56.50894
G0 F3600 X103.83 Y162.095
G1 F1800 X86.67 Y144.935 E57.31609
G0 F3600 X86.67 Y144.369
G1 F1800 X103.83 Y161.53 E58.12327
G0 F3600 X103.83 Y160.964
G1 F1800 X86.67 Y143.804 E58.93042
G0 F3600 X86.67 Y143.238
G1 F1800 X103.83 Y160.398 E59.73758
G0 F3600 X103.83 Y159.833
G1 F1800 X86.67 Y142.672 E60.54475
G0 F3600 X86.67 Y142.107
G1 F1800 X103.83 Y159.267 E61.35191
G0 F3600 X103.83 Y158.701
G1 F1800 X86.67 Y141.541 E62.15906
G0 F3600 X86.67 Y140.975
G1 F1800 X103.924 Y158.23 E62.97066
G0 F3600 X104.49 Y158.23
G1 F1800 X86.67 Y140.41 E63.80886
G0 F3600 X86.67 Y139.844
G1 F1800 X105.056 Y158.23 E64.67368
G0 F3600 X105.621 Y158.23
G1 F1800 X86.67 Y139.278 E65.5651
G0 F3600 X86.67 Y138.713
G1 F1800 X106.187 Y158.23 E66.48312
G0 F3600 X106.753 Y158.23
G1 F1800 X86.67 Y138.147 E67.42776
G0 F3600 X86.67 Y137.581
G1 F1800 X107.319 Y158.23 E68.39903
G0 F3600 X107.884 Y158.23
G1 F1800 X86.67 Y137.016 E69.39687
G0 F3600 X86.67 Y136.45
G1 F1800 X108.45 Y158.23 E70.42133
G0 F3600 X109.016 Y158.23
G1 F1800 X86.856 Y136.07 E71.46367
G0 F3600 X87.421 Y136.07
G1 F1800 X109.581 Y158.23 E72.50601
G0 F3600 X110.147 Y158.23
G1 F1800 X87.987 Y136.07 E73.54835
G0 F3600 X88.553 Y136.07
G1 F1800 X110.713 Y158.23 E74.59069
G0 F3600 X111.278 Y158.23
G1 F1800 X89.118 Y136.07 E75.63303
G0 F3600 X89.684 Y136.07
G1 F1800 X111.844 Y158.23 E76.67536
G0 F3600 X112.41 Y158.23
G1 F1800 X90.25 Y136.07 E77.7177
G0 F3600 X90.815 Y136.07
G1 F1800 X112.975 Y158.23 E78.76004
G0 F3600 X113.541 Y158.23
G1 F1800 X91.381 Y136.07 E79.80238
G0 F3600 X91.947 Y136.07
G1 F1800 X114.107 Y158.23 E80.84472
G0 F3600 X114.672 Y158.23
G1 F1800 X92.512 Y136.07 E81.88706
G0 F3600 X93.078 Y136.07
G1 F1800 X115.238 Y158.23 E82.9294
G0 F3600 X115.804 Y158.23
G1 F1800 X93.644 Y136.07 E83.97173
G0 F3600 X94.209 Y136.07
G1 F1800 X116.369 Y158.23 E85.01407
G0 F3600 X116.935 Y158.23
G1 F1800 X94.775 Y136.07 E86.05641
G0 F3600 X95.341 Y136.07
G1 F1800 X117.501 Y158.23 E87.09875
G0 F3600 X118.067 Y158.23
G1 F1800 X95.907 Y136.07 E88.14109
G0 F3600 X96.472 Y136.07
G1 F1800 X118.632 Y158.23 E89.18343
G0 F3600 X119.198 Y158.23
G1 F1800 X97.038 Y136.07 E90.22576
G0 F3600 X97.604 Y136.07
G1 F1800 X119.764 Y158.23 E91.2681
G0 F3600 X120.329 Y158.23
G1 F1800 X98.169 Y136.07 E92.31044
G0 F3600 X98.735 Y136.07
G1 F1800 X120.895 Y158.23 E93.35278
G0 F3600 X121.461 Y158.23
G1 F1800 X99.301 Y136.07 E94.39512
G0 F3600 X99.866 Y136.07
G1 F1800 X122.026 Y158.23 E95.43746
G0 F3600 X122.592 Y158.23
G1 F1800 X100.432 Y136.07 E96.4798
G0 F3600 X100.998 Y136.07
G1 F1800 X123.158 Y158.23 E97.52213
G0 F3600 X123.723 Y158.23
G1 F1800 X101.563 Y136.07 E98.56447
G0 F3600 X102.129 Y136.07
G1 F1800 X124.289 Y158.23 E99.60681
G0 F3600 X124.855 Y158.23
G1 F1800 X102.695 Y136.07 E100.64915
G0 F3600 X103.26 Y136.07
G1 F1800 X125.42 Y158.23 E101.69149
G0 F3600 X125.986 Y158.23
G1 F1800 X103.826 Y136.07 E102.73383
G0 F3600 X104.392 Y136.07
G1 F1800 X126.552 Y158.23 E103.77616
G0 F3600 X127.118 Y158.23
G1 F1800 X104.957 Y136.07 E104.81853
G0 F3600 X105.523 Y136.07
G1 F1800 X127.683 Y158.23 E105.86086
G0 F3600 X128.249 Y158.23
G1 F1800 X106.089 Y136.07 E106.9032
G0 F3600 X106.655 Y136.07
G1 F1800 X128.815 Y158.23 E107.94554
G0 F3600 X129.17 Y158.585
G1 F1800 X145.314 Y174.73 E108.70493
G0 F3600 X144.749 Y174.73
G1 F1800 X129.17 Y159.151 E109.43772
G0 F3600 X129.17 Y159.717
G1 F1800 X144.183 Y174.73 E110.14388
G0 F3600 X143.617 Y174.73
G1 F1800 X129.17 Y160.282 E110.82345
G0 F3600 X129.17 Y160.848
G1 F1800 X143.051 Y174.73 E111.47639
G0 F3600 X142.486 Y174.73
G1 F1800 X129.17 Y161.414 E112.10274
G0 F3600 X129.17 Y161.979
G1 F1800 X141.92 Y174.73 E112.70248
G0 F3600 X141.354 Y174.73
G1 F1800 X129.17 Y162.545 E113.2756
G0 F3600 X129.17 Y163.111
G1 F1800 X140.789 Y174.73 E113.82212
G0 F3600 X140.223 Y174.73
G1 F1800 X129.17 Y163.676 E114.34205
G0 F3600 X129.17 Y164.242
G1 F1800 X139.657 Y174.73 E114.83535
G0 F3600 X139.092 Y174.73
G1 F1800 X129.17 Y164.808 E115.30205
G0 F3600 X129.17 Y165.373
G1 F1800 X138.526 Y174.73 E115.74215
G0 F3600 X137.96 Y174.73
G1 F1800 X129.17 Y165.939 E116.15563
G0 F3600 X129.17 Y166.505
G1 F1800 X137.395 Y174.73 E116.54251
G0 F3600 X136.829 Y174.73
G1 F1800 X129.17 Y167.07 E116.90279
G0 F3600 X129.17 Y167.636
G1 F1800 X136.263 Y174.73 E117.23644
G0 F3600 X135.698 Y174.73
G1 F1800 X129.17 Y168.202 E117.5435
G0 F3600 X129.17 Y168.768
G1 F1800 X135.132 Y174.73 E117.82393
G0 F3600 X134.566 Y174.73
G1 F1800 X129.17 Y169.333 E118.07777
G0 F3600 X129.17 Y169.899
G1 F1800 X134 Y174.73 E118.30498
G0 F3600 X133.435 Y174.73
G1 F1800 X129.17 Y170.465 E118.50559
G0 F3600 X129.17 Y171.03
G1 F1800 X132.869 Y174.73 E118.67961
G0 F3600 X132.303 Y174.73
G1 F1800 X129.17 Y171.596 E118.827
G0 F3600 X129.17 Y172.162
G1 F1800 X131.738 Y174.73 E118.94779
G0 F3600 X131.172 Y174.73
G1 F1800 X129.17 Y172.727 E119.04198
G0 F3600 X129.17 Y173.293
G1 F1800 X130.606 Y174.73 E119.10955
G0 F3600 X130.041 Y174.73
G1 F1800 X129.17 Y173.859 E119.15052
G0 F3600 X129.17 Y174.424
G1 F1800 X129.475 Y174.73 E119.16489
G0 F3600 X145.88 Y174.73
G1 F1800 X107.22 Y136.07 E120.98333
G0 F3600 X107.786 Y136.07
G1 F1800 X146.446 Y174.73 E122.80178
G0 F3600 X147.011 Y174.73
G1 F1800 X108.352 Y136.07 E124.62021
G0 F3600 X108.917 Y136.07
G1 F1800 X147.577 Y174.73 E126.43865
G0 F3600 X148.143 Y174.73
G1 F1800 X109.483 Y136.07 E128.2571
G0 F3600 X110.049 Y136.07
G1 F1800 X148.329 Y174.351 E130.0577
G0 F3600 X148.329 Y173.785
G1 F1800 X110.614 Y136.07 E131.8317
G0 F3600 X111.18 Y136.07
G1 F1800 X148.329 Y173.219 E133.57907
G0 F3600 X148.329 Y172.654
G1 F1800 X111.746 Y136.07 E135.29985
G0 F3600 X112.311 Y136.07
G1 F1800 X148.329 Y172.088 E136.99402
G0 F3600 X148.329 Y171.522
G1 F1800 X112.877 Y136.07 E138.66158
G0 F3600 X113.443 Y136.07
G1 F1800 X148.329 Y170.957 E140.30253
G0 F3600 X148.329 Y170.391
G1 F1800 X114.008 Y136.07 E141.91689
G0 F3600 X114.574 Y136.07
G1 F1800 X148.329 Y169.825 E143.50462
G0 F3600 X148.329 Y169.26
G1 F1800 X115.14 Y136.07 E145.06575
G0 F3600 X115.706 Y136.07
G1 F1800 X148.329 Y168.694 E146.60026
G0 F3600 X148.329 Y168.128
G1 F1800 X116.271 Y136.07 E148.10817
G0 F3600 X116.837 Y136.07
G1 F1800 X148.329 Y167.563 E149.58948
G0 F3600 X148.329 Y166.997
G1 F1800 X117.403 Y136.07 E151.04417
G0 F3600 X117.968 Y136.07
G1 F1800 X148.329 Y166.431 E152.47226
G0 F3600 X148.329 Y165.866
G1 F1800 X118.534 Y136.07 E153.87374
G0 F3600 X119.1 Y136.07
G1 F1800 X148.329 Y165.3 E155.24861
G0 F3600 X148.329 Y164.734
G1 F1800 X119.665 Y136.07 E156.59688
G0 F3600 X120.231 Y136.07
G1 F1800 X148.329 Y164.168 E157.91852
G0 F3600 X148.329 Y163.603
G1 F1800 X120.797 Y136.07 E159.21357
G0 F3600 X121.362 Y136.07
G1 F1800 X148.329 Y163.037 E160.48201
G0 F3600 X148.329 Y162.471
G1 F1800 X121.928 Y136.07 E161.72383
G0 F3600 X122.494 Y136.07
G1 F1800 X148.329 Y161.906 E162.93906
G0 F3600 X148.329 Y161.34
G1 F1800 X123.059 Y136.07 E164.12768
G0 F3600 X123.625 Y136.07
G1 F1800 X148.329 Y160.774 E165.28968
G0 F3600 X148.329 Y160.209
G1 F1800 X124.191 Y136.07 E166.42508
G0 F3600 X124.756 Y136.07
G1 F1800 X148.329 Y159.643 E167.53388
G0 F3600 X148.329 Y159.077
G1 F1800 X125.322 Y136.07 E168.61606
G0 F3600 X125.888 Y136.07
G1 F1800 X148.329 Y158.512 E169.67164
G0 F3600 X148.329 Y157.946
G1 F1800 X126.454 Y136.07 E170.7006
G0 F3600 X127.019 Y136.07
G1 F1800 X148.329 Y157.38 E171.70295
G0 F3600 X148.329 Y156.815
G1 F1800 X127.585 Y136.07 E172.67871
G0 F3600 X128.151 Y136.07
G1 F1800 X148.329 Y156.249 E173.62785
G0 F3600 X148.329 Y155.683
G1 F1800 X128.716 Y136.07 E174.55038
G0 F3600 X129.282 Y136.07
G1 F1800 X148.329 Y155.118 E175.44632
G0 F3600 X148.329 Y154.552
G1 F1800 X129.848 Y136.07 E176.31563
G0 F3600 X130.413 Y136.07
G1 F1800 X148.329 Y153.986 E177.15834
G0 F3600 X148.329 Y153.42
G1 F1800 X130.979 Y136.07 E177.97444
G0 F3600 X131.545 Y136.07
G1 F1800 X148.329 Y152.855 E178.76393
G0 F3600 X148.329 Y152.289
G1 F1800 X132.11 Y136.07 E179.52682
G0 F3600 X132.676 Y136.07
G1 F1800 X148.329 Y151.723 E180.26309
G0 F3600 X148.329 Y151.158
G1 F1800 X133.242 Y136.07 E180.97276
G0 F3600 X133.807 Y136.07
G1 F1800 X148.329 Y150.592 E181.65583
G0 F3600 X148.329 Y150.026
G1 F1800 X134.373 Y136.07 E182.31228
G0 F3600 X134.939 Y136.07
G1 F1800 X148.329 Y149.461 E182.94212
G0 F3600 X148.329 Y148.895
G1 F1800 X135.504 Y136.07 E183.54537
G0 F3600 X136.07 Y136.07
G1 F1800 X148.329 Y148.329 E184.122
G0 F3600 X148.329 Y147.764
G1 F1800 X136.636 Y136.07 E184.67202
G0 F3600 X137.202 Y136.07
G1 F1800 X148.329 Y147.198 E185.19543
G0 F3600 X148.329 Y146.632
G1 F1800 X137.767 Y136.07 E185.69223
G0 F3600 X138.333 Y136.07
G1 F1800 X148.329 Y146.067 E186.16244
G0 F3600 X148.329 Y145.501
G1 F1800 X138.899 Y136.07 E186.60602
G0 F3600 X139.464 Y136.07
G1 F1800 X148.329 Y144.935 E187.023
G0 F3600 X148.329 Y144.369
G1 F1800 X140.03 Y136.07 E187.41336
G0 F3600 X140.596 Y136.07
G1 F1800 X148.329 Y143.804 E187.77712
G0 F3600 X148.329 Y143.238
G1 F1800 X141.161 Y136.07 E188.11428
G0 F3600 X141.727 Y136.07
M104 S200
G1 F1800 X148.329 Y142.672 E188.42482
G0 F3600 X148.329 Y142.107
G1 F1800 X142.293 Y136.07 E188.70876
G0 F3600 X142.858 Y136.07
G1 F1800 X148.329 Y141.541 E188.9661
G0 F3600 X148.329 Y140.975
G1 F1800 X143.424 Y136.07 E189.19681
G0 F3600 X143.99 Y136.07
G1 F1800 X148.329 Y140.41 E189.40093
G0 F3600 X148.329 Y139.844
G1 F1800 X144.555 Y136.07 E189.57845
G0 F3600 X145.121 Y136.07
G1 F1800 X148.329 Y139.278 E189.72934
G0 F3600 X148.329 Y138.713
G1 F1800 X145.687 Y136.07 E189.85364
G0 F3600 X146.253 Y136.07
G1 F1800 X148.329 Y138.147 E189.95131
G0 F3600 X148.329 Y137.581
G1 F1800 X146.818 Y136.07 E190.02238
G0 F3600 X147.384 Y136.07
G1 F1800 X148.329 Y137.016 E190.06685
G0 F3600 X148.329 Y136.45
G1 F1800 X147.95 Y136.07 E190.08471
G1 F2400 E185.08471
;MESH:NONMESH
G0 F3600 X95.497 Y135.521
G0 X95.497 Y134.236
G0 X95.497 Y60.61
;TIME_ELAPSED:216.891615
;LAYER:1
M140 S50
M106 S255
;MESH:LM2596_wLateralDisplay.stl
G0 F5400 X95.497 Y60.61 Z0.4
;TYPE:WALL-INNER
G1 F2400 E190.08471
G1 F2700 X147.228 Y60.609 E191.80529
G1 X147.653 Y60.707 E191.81979
G1 X147.813 Y61.039 E191.83205
G1 X147.814 Y97.766 E193.05359
G1 X147.656 Y98.095 E193.06573
G1 X147.229 Y98.192 E193.0803
G1 X95.498 Y98.192 E194.80088
G1 X87.507 Y98.191 E195.06666
G1 X87.277 Y98.008 E195.07644
G1 X87.277 Y60.846 E196.31245
G1 X87.277 Y60.793 E196.31421
G1 X87.506 Y60.609 E196.32398
G1 X87.559 Y60.609 E196.32574
G1 X95.497 Y60.61 E196.58976
G0 F5400 X95.497 Y60.21
;TYPE:WALL-OUTER
G1 F1800 X147.273 Y60.209 E198.31184
G1 X147.931 Y60.36 E198.33429
G1 X148.213 Y60.947 E198.35595
G1 X148.214 Y97.856 E199.58355
G1 X147.932 Y98.442 E199.60518
G1 X147.274 Y98.592 E199.62763
G1 X95.498 Y98.592 E201.34971
G1 X87.367 Y98.591 E201.62014
G1 X86.877 Y98.201 E201.64097
G1 X86.877 Y60.601 E202.89155
G1 X87.366 Y60.209 E202.9124
G1 X95.497 Y60.21 E203.18284
G0 F5400 X95.697 Y60.21
G0 X95.497 Y61
;TYPE:SKIN
G1 F1800 X147.185 Y60.999 E204.90199
G1 X147.383 Y61.044 E204.90874
G1 X147.423 Y61.127 E204.91181
